uvnb/com_arm_uav/ros2_ws/armfinal_dynamic_com_dataset.csv
timestamp,j2,j4,j5,v2,v4,v5,ee_x,ee_y,ee_z,com_x,com_y,com_z
0.0000,0.000000,0.000000,0.000000,0.000000,0.000000,0.000000,-0.016326,0.037378,0.131307,0.000273,0.006132,0.444810
0.0518,0.000000,0.000000,0.000000,0.000000,0.000000,0.000000,-0.016326,0.037378,0.131307,0.000273,0.006132,0.444810
0.1084,0.000000,0.000000,0.000000,0.000000,0.000000,0.000000,-0.016326,0.037378,0.131307,0.000273,0.006132,0.444810
0.1632,0.000000,0.000000,0.000000,0.000000,0.000000,0.000000,-0.016326,0.037378,0.131307,0.000273,0.006132,0.444810
0.2263,0.000000,0.000000,0.000000,0.000000,0.000000,0.000000,-0.016326,0.037378,0.131307,0.000273,0.006132,0.444810
0.2858,0.000000,0.000000,0.000000,0.000000,0.000000,0.000000,-0.016326,0.037378,0.131307,0.000273,0.006132,0.444810
0.3366,0.000000,0.000000,0.000000,0.000000,0.000000,0.000000,-0.016326,0.037378,0.131307,0.000273,0.006132,0.444810
0.3920,0.000000,0.000000,0.000000,0.000000,0.000000,0.000000,-0.016326,0.037378,0.131307,0.000273,0.006132,0.444810
0.4470,0.000000,0.000000,0.000000,0.000000,0.000000,0.000000,-0.016326,0.037378,0.131307,0.000273,0.006132,0.444810
0.4991,0.000000,0.000000,0.000000,0.000000,0.000000,0.000000,-0.016326,0.037378,0.131307,0.000273,0.006132,0.444810
0.5534,0.000000,0.000000,0.000000,0.000000,0.000000,0.000000,-0.016326,0.037378,0.131307,0.000273,0.006132,0.444810
0.6063,0.000000,0.000000,0.000000,0.000000,0.000000,0.000000,-0.016326,0.037378,0.131307,0.000273,0.006132,0.444810
0.6583,0.000000,0.000000,0.000000,0.000000,0.000000,0.000000,-0.016326,0.037378,0.131307,0.000273,0.006132,0.444810
0.7138,0.000000,0.000000,0.000000,0.000000,0.000000,0.000000,-0.016326,0.037378,0.131307,0.000273,0.006132,0.444810
0.7714,0.000000,0.000000,0.000000,0.000000,0.000000,0.000000,-0.016326,0.037378,0.131307,0.000273,0.006132,0.444810
0.8250,0.000000,0.000000,0.000000,0.000000,0.000000,0.000000,-0.016326,0.037378,0.131307,0.000273,0.006132,0.444810
0.8770,0.000000,0.000000,0.000000,0.000000,0.000000,0.000000,-0.016326,0.037378,0.131307,0.000273,0.006132,0.444810
0.9285,0.000000,0.000000,0.000000,0.000000,0.000000,0.000000,-0.016326,0.037378,0.131307,0.000273,0.006132,0.444810
0.9799,0.000000,0.000000,0.000000,0.000000,0.000000,0.000000,-0.016326,0.037378,0.131307,0.000273,0.006132,0.444810
1.0329,0.000000,0.000000,0.000000,0.000000,0.000000,0.000000,-0.016326,0.037378,0.131307,0.000273,0.006132,0.444810
1.0940,0.000000,0.000000,0.000000,0.000000,0.000000,0.000000,-0.016326,0.037378,0.131307,0.000273,0.006132,0.444810
1.1465,0.000000,0.000000,0.000000,0.000000,0.000000,0.000000,-0.016326,0.037378,0.131307,0.000273,0.006132,0.444810
1.2057,0.000000,0.000000,0.000000,0.000000,0.000000,0.000000,-0.016326,0.037378,0.131307,0.000273,0.006132,0.444810
1.2572,0.000000,0.000000,0.000000,0.000000,0.000000,0.000000,-0.016326,0.037378,0.131307,0.000273,0.006132,0.444810
1.3077,0.000000,0.000000,0.000000,0.000000,0.000000,0.000000,-0.016326,0.037378,0.131307,0.000273,0.006132,0.444810
1.3693,0.000000,0.000000,0.000000,0.000000,0.000000,0.000000,-0.016326,0.037378,0.131307,0.000273,0.006132,0.444810
1.4288,0.000000,0.000000,0.000000,0.000000,0.000000,0.000000,-0.016326,0.037378,0.131307,0.000273,0.006132,0.444810
1.4813,0.000000,0.000000,0.000000,0.000000,0.000000,0.000000,-0.016326,0.037378,0.131307,0.000273,0.006132,0.444810
1.5409,0.000000,0.000000,0.000000,0.000000,0.000000,0.000000,-0.016326,0.037378,0.131307,0.000273,0.006132,0.444810
1.5923,0.000000,0.000000,0.000000,0.000000,0.000000,0.000000,-0.016326,0.037378,0.131307,0.000273,0.006132,0.444810
1.6436,0.000000,0.000000,0.000000,0.000000,0.000000,0.000000,-0.016326,0.037378,0.131307,0.000273,0.006132,0.444810
1.6946,0.000000,0.000000,0.000000,0.000000,0.000000,0.000000,-0.016326,0.037378,0.131307,0.000273,0.006132,0.444810
1.7456,0.000000,0.000000,0.000000,0.000000,0.000000,0.000000,-0.016326,0.037378,0.131307,0.000273,0.006132,0.444810
1.7973,0.000000,0.000000,0.000000,0.000000,0.000000,0.000000,-0.016326,0.037378,0.131307,0.000273,0.006132,0.444810
1.8560,0.000000,0.000000,0.000000,0.000000,0.000000,0.000000,-0.016326,0.037378,0.131307,0.000273,0.006132,0.444810
1.9098,0.000000,0.000000,0.000000,0.000000,0.000000,0.000000,-0.016326,0.037378,0.131307,0.000273,0.006132,0.444810
1.9640,0.000000,0.000000,0.000000,0.000000,0.000000,0.000000,-0.016326,0.037378,0.131307,0.000273,0.006132,0.444810
2.0179,0.000000,0.000000,0.000000,0.000000,0.000000,0.000000,-0.016326,0.037378,0.131307,0.000273,0.006132,0.444810
2.0737,0.000000,0.000000,0.000000,0.000000,0.000000,0.000000,-0.016326,0.037378,0.131307,0.000273,0.006132,0.444810
2.1298,0.000000,0.000000,0.000000,0.000000,0.000000,0.000000,-0.016326,0.037378,0.131307,0.000273,0.006132,0.444810
2.1898,0.000000,0.000000,0.000000,0.000000,0.000000,0.000000,-0.016326,0.037378,0.131307,0.000273,0.006132,0.444810
2.2436,0.000000,0.000000,0.000000,0.000000,0.000000,0.000000,-0.016326,0.037378,0.131307,0.000273,0.006132,0.444810
2.3044,0.000000,0.000000,0.000000,0.000000,0.000000,0.000000,-0.016326,0.037378,0.131307,0.000273,0.006132,0.444810
2.3658,0.000000,0.000000,0.000000,0.000000,0.000000,0.000000,-0.016326,0.037378,0.131307,0.000273,0.006132,0.444810
2.4247,0.000000,0.000000,0.000000,0.000000,0.000000,0.000000,-0.016326,0.037378,0.131307,0.000273,0.006132,0.444810
2.4829,0.000000,0.000000,0.000000,0.000000,0.000000,0.000000,-0.016326,0.037378,0.131307,0.000273,0.006132,0.444810
2.5347,0.000000,0.000000,0.000000,0.000000,0.000000,0.000000,-0.016326,0.037378,0.131307,0.000273,0.006132,0.444810
2.5880,0.000000,0.000000,0.000000,0.000000,0.000000,0.000000,-0.016326,0.037378,0.131307,0.000273,0.006132,0.444810
2.6391,0.000000,0.000000,0.000000,0.000000,0.000000,0.000000,-0.016326,0.037378,0.131307,0.000273,0.006132,0.444810
2.6895,0.000000,0.000000,0.000000,0.000000,0.000000,0.000000,-0.016326,0.037378,0.131307,0.000273,0.006132,0.444810
2.7406,0.000000,0.000000,0.000000,0.000000,0.000000,0.000000,-0.016326,0.037378,0.131307,0.000273,0.006132,0.444810
2.7938,0.000000,0.000000,0.000000,0.000000,0.000000,0.000000,-0.016326,0.037378,0.131307,0.000273,0.006132,0.444810
2.8452,0.000000,0.000000,0.000000,0.000000,0.000000,0.000000,-0.016326,0.037378,0.131307,0.000273,0.006132,0.444810
2.8978,0.000000,0.000000,0.000000,0.000000,0.000000,0.000000,-0.016326,0.037378,0.131307,0.000273,0.006132,0.444810
2.9501,0.000000,0.000000,0.000000,0.000000,0.000000,0.000000,-0.016326,0.037378,0.131307,0.000273,0.006132,0.444810
3.0018,0.000000,0.000000,0.000000,0.000000,0.000000,0.000000,-0.016326,0.037378,0.131307,0.000273,0.006132,0.444810
3.0543,0.000000,0.000000,0.000000,0.000000,0.000000,0.000000,-0.016326,0.037378,0.131307,0.000273,0.006132,0.444810
3.1106,0.000000,0.000000,0.000000,0.000000,0.000000,0.000000,-0.016326,0.037378,0.131307,0.000273,0.006132,0.444810
3.1689,0.000000,0.000000,0.000000,0.000000,0.000000,0.000000,-0.016326,0.037378,0.131307,0.000273,0.006132,0.444810
3.2235,0.000000,0.000000,0.000000,0.000000,0.000000,0.000000,-0.016326,0.037378,0.131307,0.000273,0.006132,0.444810
3.2776,0.000000,0.000000,0.000000,0.000000,0.000000,0.000000,-0.016326,0.037378,0.131307,0.000273,0.006132,0.444810
3.3347,0.000000,0.000000,0.000000,0.000000,0.000000,0.000000,-0.016326,0.037378,0.131307,0.000273,0.006132,0.444810
3.3979,0.000000,0.000000,0.000000,0.000000,0.000000,0.000000,-0.016326,0.037378,0.131307,0.000273,0.006132,0.444810
3.4525,0.000000,0.000000,0.000000,0.000000,0.000000,0.000000,-0.016326,0.037378,0.131307,0.000273,0.006132,0.444810
3.5075,0.000000,0.000000,0.000000,0.000000,0.000000,0.000000,-0.016326,0.037378,0.131307,0.000273,0.006132,0.444810
3.5638,0.000000,0.000000,0.000000,0.000000,0.000000,0.000000,-0.016326,0.037378,0.131307,0.000273,0.006132,0.444810
3.6239,0.000000,0.000000,0.000000,0.000000,0.000000,0.000000,-0.016326,0.037378,0.131307,0.000273,0.006132,0.444810
3.6747,0.000000,0.000000,0.000000,0.000000,0.000000,0.000000,-0.016326,0.037378,0.131307,0.000273,0.006132,0.444810
3.7251,0.000000,0.000000,0.000000,0.000000,0.000000,0.000000,-0.016326,0.037378,0.131307,0.000273,0.006132,0.444810
3.7810,0.000000,0.000000,0.000000,0.000000,0.000000,0.000000,-0.016326,0.037378,0.131307,0.000273,0.006132,0.444810
3.8456,0.000000,0.000000,0.000000,0.000000,0.000000,0.000000,-0.016326,0.037378,0.131307,0.000273,0.006132,0.444810
3.8967,0.000000,0.000000,0.000000,0.000000,0.000000,0.000000,-0.016326,0.037378,0.131307,0.000273,0.006132,0.444810
3.9524,0.000000,0.000000,0.000000,0.000000,0.000000,0.000000,-0.016326,0.037378,0.131307,0.000273,0.006132,0.444810
4.0051,0.000887,0.000296,0.000591,0.088695,0.029589,0.059062,-0.016306,0.037678,0.131344,0.000270,0.006193,0.444820
4.0560,0.009712,0.003241,0.006463,0.168577,0.056384,0.111848,-0.016075,0.040655,0.131720,0.000246,0.006808,0.444913
4.1138,0.025677,0.008585,0.017046,0.239662,0.080522,0.158009,-0.015526,0.046021,0.132457,0.000230,0.007919,0.445092
4.1710,0.045722,0.015339,0.030208,0.589425,0.199301,0.385113,-0.014603,0.052711,0.133480,0.000260,0.009309,0.445334
4.2256,0.075327,0.025380,0.049467,0.689849,0.235280,0.445200,-0.012763,0.062482,0.135192,0.000406,0.011349,0.445727
4.2790,0.108719,0.036856,0.070782,1.137762,0.392242,0.722943,-0.010021,0.073298,0.137398,0.000714,0.013625,0.446221
4.3332,0.148655,0.050743,0.095841,1.231678,0.430376,0.767307,-0.005833,0.085905,0.140415,0.001279,0.016301,0.446880
4.3844,0.191262,0.065787,0.121976,1.303200,0.462914,0.792139,-0.000311,0.098881,0.144072,0.002115,0.019085,0.447664
4.4470,0.235803,0.081807,0.148542,1.352732,0.490079,0.797720,0.006574,0.111830,0.148356,0.003236,0.021899,0.448568
4.5007,0.267745,0.093506,0.167061,0.968071,0.359027,0.550069,0.012178,0.120677,0.151703,0.004192,0.023848,0.449269
4.5516,0.296914,0.104477,0.183258,1.006387,0.383330,0.547172,0.017751,0.128383,0.154933,0.005173,0.025575,0.449942
4.6064,0.341647,0.121874,0.206728,1.467497,0.576256,0.756758,0.027095,0.139468,0.160185,0.006873,0.028114,0.451035
4.6602,0.375537,0.135402,0.223697,1.000331,0.407230,0.482557,0.034783,0.147267,0.164411,0.008313,0.029941,0.451913
4.7131,0.405682,0.148176,0.237116,1.456166,0.617050,0.648219,0.042007,0.153686,0.168265,0.009704,0.031505,0.452720
4.7737,0.453206,0.169266,0.256214,1.806138,0.801509,0.725832,0.054103,0.162871,0.174579,0.012102,0.033831,0.454051
4.8344,0.480550,0.182091,0.265761,-0.000000,0.000000,0.000000,0.061419,0.167617,0.178314,0.013594,0.035094,0.454848
4.8850,0.522308,0.202981,0.277717,-0.000000,0.000000,0.000000,0.073040,0.174079,0.184111,0.016035,0.036923,0.456106
4.9360,0.559657,0.223198,0.285443,-0.000000,0.000000,0.000000,0.083852,0.179054,0.189365,0.018388,0.038457,0.457275
4.9873,0.592244,0.242648,0.288804,-0.000000,0.000000,0.000000,0.093572,0.182765,0.193934,0.020588,0.039739,0.458329
5.0386,0.619763,0.261246,0.287734,-0.000000,0.000000,0.000000,0.101967,0.185444,0.197704,0.022581,0.040813,0.459246
5.0942,0.641951,0.278909,0.282240,-0.000000,0.000000,0.000000,0.108860,0.187314,0.200589,0.024322,0.041724,0.460009
5.1490,0.658596,0.295558,0.272398,-0.000000,0.000000,0.000000,0.114119,0.188573,0.202539,0.025772,0.042515,0.460606
5.2028,0.669537,0.311119,0.258354,-0.000000,0.000000,0.000000,0.117655,0.189383,0.203531,0.026903,0.043220,0.461030
5.2594,0.674664,0.325524,0.240320,-0.000000,0.000000,0.000000,0.119415,0.189863,0.203576,0.027693,0.043867,0.461279
5.3095,0.674202,0.333698,0.226838,-0.000000,0.000000,0.000000,0.119397,0.190000,0.203035,0.027961,0.044245,0.461325
5.3624,0.667556,0.346060,0.200967,0.000000,-0.000000,-0.000000,0.117593,0.189996,0.201282,0.028043,0.044845,0.461234
5.4192,0.657768,0.353975,0.179552,-0.205783,0.110017,-0.356593,0.114818,0.189792,0.199351,0.027794,0.045259,0.461036
5.4713,0.638535,0.363766,0.147071,-0.266901,0.093604,-0.377871,0.109349,0.189196,0.196019,0.027095,0.045798,0.460624
5.5235,0.613794,0.372069,0.112720,-0.325811,0.076875,-0.393644,0.102375,0.188167,0.192181,0.026041,0.046268,0.460095
5.5764,0.583750,0.378855,0.076999,-0.381974,0.059890,-0.403621,0.094055,0.186585,0.187965,0.024652,0.046645,0.459467
5.6320,0.548656,0.384103,0.040436,-0.434881,0.042714,-0.407608,0.084587,0.184326,0.183499,0.022957,0.046897,0.458759
5.6861,0.508812,0.387795,0.003572,-0.484048,0.025409,-0.405508,0.074201,0.181276,0.178908,0.020992,0.046993,0.457991
5.7366,0.464561,0.389921,-0.033040,-0.529030,0.008040,-0.397323,0.063158,0.177340,0.174308,0.018803,0.046903,0.457183
5.7867,0.416285,0.390475,-0.068852,-0.569415,-0.009328,-0.383154,0.051739,0.172461,0.169804,0.016442,0.046601,0.456353
5.8476,0.364404,0.389458,-0.103324,-0.604837,-0.026628,-0.363200,0.040231,0.166622,0.165483,0.013966,0.046067,0.455516
5.9016,0.329964,0.387783,-0.123570,-0.655774,-0.044712,-0.350241,0.033062,0.162511,0.162908,0.012369,0.045603,0.454991
5.9611,0.279403,0.383891,-0.149303,-1.331938,-0.119959,-0.628126,0.023235,0.156267,0.159525,0.010108,0.044782,0.454262
6.0113,0.238940,0.379807,-0.167097,-1.406314,-0.155421,-0.578796,0.015948,0.151100,0.157101,0.008378,0.044017,0.453710
6.0623,0.171753,0.371942,-0.193436,-1.420064,-0.185802,-0.498458,0.004913,0.142064,0.153478,0.005679,0.042558,0.452845
6.1158,0.104072,0.362639,-0.215856,-1.423227,-0.215510,-0.411961,-0.004859,0.132554,0.150284,0.003196,0.040877,0.452031
6.1663,0.036406,0.351934,-0.234080,-1.415593,-0.244423,-0.320514,-0.013307,0.122812,0.147493,0.000968,0.039014,0.451268
6.2184,-0.030731,0.339866,-0.247894,-1.397063,-0.272422,-0.225421,-0.020427,0.113080,0.145068,-0.000979,0.037014,0.450556
6.2727,-0.096819,0.326479,-0.257144,-1.367650,-0.299392,-0.128052,-0.026274,0.103580,0.142968,-0.002629,0.034924,0.449890
6.3227,-0.156910,0.312303,-0.259981,-1.960490,-0.478555,-0.048826,-0.030688,0.095302,0.141301,-0.003891,0.032935,0.449311
6.3762,-0.230696,0.293726,-0.260343,-1.263271,-0.345431,0.065203,-0.034958,0.085217,0.139444,-0.005125,0.030406,0.448633
6.4297,-0.285535,0.277551,-0.254592,-1.778686,-0.543349,0.232893,-0.037462,0.078212,0.138231,-0.005805,0.028466,0.448144
6.4827,-0.342758,0.258785,-0.244094,-1.673907,-0.573420,0.364344,-0.039512,0.071243,0.137079,-0.006291,0.026395,0.447651
6.5352,-0.396218,0.239059,-0.229350,-1.556340,-0.601402,0.488908,-0.040980,0.065094,0.136106,-0.006525,0.024417,0.447204
6.5901,-0.445505,0.218444,-0.210627,-1.426842,-0.627168,0.604724,-0.042009,0.059760,0.135301,-0.006535,0.022545,0.446806
6.6426,-0.490242,0.197017,-0.188254,-1.286392,-0.650603,0.710060,-0.042718,0.055207,0.134659,-0.006347,0.020786,0.446460
6.6955,-0.530084,0.174858,-0.162613,-1.136081,-0.671600,0.803341,-0.043198,0.051382,0.134179,-0.005988,0.019141,0.446166
6.7468,-0.564728,0.152050,-0.134136,-0.977103,-0.690066,0.883171,-0.043510,0.048217,0.133863,-0.005483,0.017603,0.445929
6.8023,-0.593911,0.128680,-0.103297,-0.810741,-0.705917,0.948364,-0.043687,0.045634,0.133710,-0.004853,0.016162,0.445749
6.8533,-0.617414,0.104836,-0.070603,-0.638354,-0.719079,0.997955,-0.043733,0.043552,0.133717,-0.004119,0.014801,0.445628
6.9045,-0.635065,0.080610,-0.036592,-0.461367,-0.729494,1.031220,-0.043633,0.041884,0.133878,-0.003298,0.013501,0.445565
6.9597,-0.646742,0.056094,-0.001817,-0.281254,-0.737110,1.047689,-0.043353,0.040545,0.134179,-0.002407,0.012241,0.445558
7.0103,-0.652372,0.031382,0.033155,-0.099526,-0.741891,1.047149,-0.042849,0.039444,0.134600,-0.001461,0.010995,0.445604
7.0607,-0.651931,0.006569,0.067759,0.082283,-0.743812,1.029653,-0.042074,0.038489,0.135115,-0.000476,0.009739,0.445697
7.1156,-0.645450,-0.018248,0.101433,0.262633,-0.742859,0.995518,-0.040981,0.037580,0.135692,0.000531,0.008447,0.445831
7.1674,-0.633009,-0.042973,0.133636,0.439988,-0.739029,0.945317,-0.039532,0.036612,0.136294,0.001543,0.007092,0.445998
7.2193,-0.614739,-0.067512,0.163846,0.612835,-0.732333,0.879875,-0.037705,0.035472,0.136882,0.002537,0.005650,0.446190
7.2778,-0.590822,-0.091768,0.191578,0.779693,-0.722793,0.800255,-0.035498,0.034038,0.137418,0.003491,0.004098,0.446398
7.3281,-0.558568,-0.116320,0.216129,1.225788,-0.933097,0.933049,-0.032681,0.031986,0.137815,0.004408,0.002324,0.446605
7.3817,-0.521365,-0.140293,0.237127,1.413883,-0.911060,0.798005,-0.029592,0.029337,0.138092,0.005209,0.000400,0.446812
7.4335,-0.479541,-0.163602,0.254253,1.589458,-0.885843,0.650874,-0.026327,0.025968,0.138231,0.005859,-0.001682,0.447010
7.4864,-0.433469,-0.186165,0.267250,1.750951,-0.857507,0.493932,-0.023016,0.021767,0.138227,0.006321,-0.003926,0.447196
7.5402,-0.383555,-0.207903,0.275923,1.896927,-0.826131,0.329613,-0.019821,0.016647,0.138089,0.006559,-0.006325,0.447365
7.5909,-0.330243,-0.228738,0.280146,2.026088,-0.791808,0.160471,-0.016927,0.010550,0.137840,0.006536,-0.008866,0.447518
7.6460,-0.274005,-0.248595,0.279860,2.137286,-0.754643,-0.010862,-0.014539,0.003456,0.137515,0.006220,-0.011525,0.447655
7.6974,-0.215340,-0.267402,0.275078,2.229531,-0.714759,-0.181713,-0.012870,-0.004605,0.137164,0.005581,-0.014272,0.447782
7.7482,-0.154767,-0.285092,0.265884,2.302004,-0.672289,-0.349416,-0.012126,-0.013559,0.136848,0.004599,-0.017067,0.447903
7.8024,-0.092825,-0.301600,0.252429,2.354059,-0.627380,-0.511352,-0.012495,-0.023275,0.136631,0.003263,-0.019865,0.448025
7.8531,-0.030063,-0.316867,0.234931,2.385232,-0.580189,-0.664990,-0.014127,-0.033579,0.136585,0.001573,-0.022616,0.448157
7.9050,0.035820,-0.332048,0.214277,1.810530,-0.399626,-0.615205,-0.017293,-0.044548,0.136831,-0.000559,-0.025385,0.448335
7.9552,0.098292,-0.344559,0.189543,2.374188,-0.475479,-0.940014,-0.021738,-0.055311,0.137321,-0.002911,-0.027867,0.448509
8.0089,0.163193,-0.356802,0.161769,1.769473,-0.317888,-0.800918,-0.027881,-0.066320,0.138231,-0.005684,-0.030267,0.448743
8.0654,0.223162,-0.366402,0.131433,2.279047,-0.364843,-1.152904,-0.035015,-0.076510,0.139449,-0.008533,-0.032292,0.448982
8.1177,0.281238,-0.374549,0.098997,2.207157,-0.309620,-1.232724,-0.043257,-0.086088,0.141054,-0.011540,-0.034050,0.449257
8.1766,0.315746,-0.378679,0.077904,0.000000,-0.000000,-0.000000,-0.048786,-0.091616,0.142228,-0.013435,-0.034985,0.449439
8.2292,0.370405,-0.384061,0.041664,0.000000,-0.000000,-0.000000,-0.058498,-0.100010,0.144461,-0.016588,-0.036281,0.449759
8.2892,0.426705,-0.388142,0.001008,0.520513,-0.025059,-0.402917,-0.069676,-0.108005,0.147284,-0.020008,-0.037352,0.450138
8.3459,0.473321,-0.390236,-0.035373,0.472017,-0.007722,-0.394967,-0.079786,-0.114001,0.150055,-0.022949,-0.038010,0.450492
8.3965,0.515509,-0.390761,-0.070974,0.419561,0.009617,-0.381011,-0.089564,-0.118864,0.152926,-0.025673,-0.038404,0.450838
8.4476,0.552915,-0.389718,-0.105254,0.363589,0.026891,-0.361251,-0.098692,-0.122664,0.155777,-0.028112,-0.038567,0.451159
8.4986,0.585227,-0.387113,-0.137691,0.304579,0.044035,-0.335978,-0.106880,-0.125501,0.158480,-0.030208,-0.038536,0.451436
8.5496,0.612172,-0.382959,-0.167789,0.243037,0.060984,-0.305576,-0.113878,-0.127495,0.160906,-0.031913,-0.038352,0.451651
8.6114,0.643383,-0.374801,-0.207478,0.169543,0.075174,-0.257993,-0.122089,-0.129286,0.163908,-0.033782,-0.037902,0.451860
8.6697,0.660087,-0.366089,-0.234622,0.200358,0.174350,-0.417868,-0.126398,-0.129854,0.165561,-0.034621,-0.037416,0.451888
8.7303,0.668837,-0.354391,-0.258145,0.109461,0.292530,-0.483041,-0.128357,-0.129695,0.166340,-0.034780,-0.036795,0.451743
8.7812,0.668821,-0.343742,-0.271770,-0.067902,0.335113,-0.362069,-0.127852,-0.129045,0.166137,-0.034359,-0.036250,0.451496
8.8329,0.662893,-0.331700,-0.281231,-0.244734,0.376271,-0.235040,-0.125573,-0.127897,0.165203,-0.033471,-0.035637,0.451130
8.8849,0.651104,-0.318316,-0.286366,-0.419460,0.415851,-0.103988,-0.121554,-0.126168,0.163545,-0.032131,-0.034932,0.450651
8.9393,0.633556,-0.303647,-0.287085,-0.590522,0.453704,0.028993,-0.115875,-0.123726,0.161205,-0.030366,-0.034100,0.450068
8.9900,0.610404,-0.287753,-0.283369,-0.756398,0.489690,0.161777,-0.108665,-0.120403,0.158257,-0.028213,-0.033100,0.449399
9.0453,0.581852,-0.270698,-0.275266,-0.915608,0.523672,0.292249,-0.100107,-0.116000,0.154808,-0.025723,-0.031883,0.448664
9.0967,0.548150,-0.252552,-0.262897,-1.066737,0.555524,0.418328,-0.090444,-0.110312,0.150996,-0.022956,-0.030397,0.447891
9.1487,0.509597,-0.233390,-0.246451,-1.208438,0.585125,0.538007,-0.079976,-0.103138,0.146982,-0.019987,-0.028593,0.447109
9.1999,0.466534,-0.213288,-0.226181,-1.339450,0.612364,0.649381,-0.069062,-0.094308,0.142948,-0.016902,-0.026429,0.446351
9.2518,0.419341,-0.192328,-0.202400,-1.458606,0.637139,0.750676,-0.058107,-0.083705,0.139086,-0.013796,-0.023874,0.445651
9.3021,0.368438,-0.170593,-0.175480,-1.564847,0.659355,0.840281,-0.047554,-0.071283,0.135593,-0.010772,-0.020914,0.445043
9.3540,0.314273,-0.148171,-0.145838,-1.657226,0.678929,0.916769,-0.037860,-0.057085,0.132656,-0.007936,-0.017554,0.444560
9.4142,0.235312,-0.116322,-0.101517,-2.201621,0.882956,1.242255,-0.026743,-0.034924,0.129836,-0.004528,-0.012323,0.444149
9.4660,0.173361,-0.091703,-0.066320,-1.726192,0.681373,0.985659,-0.020643,-0.016641,0.128844,-0.002474,-0.007999,0.444067
9.5279,0.092053,-0.059843,-0.019752,-2.257569,0.882211,1.294431,-0.016260,0.008006,0.129168,-0.000628,-0.002149,0.444274
9.5785,0.031451,-0.036272,0.014892,-2.303112,0.895814,1.316614,-0.015696,0.026481,0.130593,0.000118,0.002267,0.444655
9.6296,-0.029776,-0.012446,0.049548,-2.326902,0.905463,1.317097,-0.017452,0.044926,0.133035,0.000326,0.006720,0.445230
9.6817,-0.091055,0.011529,0.083649,-2.328845,0.911158,1.295957,-0.021498,0.062884,0.136454,-0.000004,0.011112,0.445990
9.7416,-0.151812,0.035550,0.116635,-0.000000,0.000000,0.000000,-0.027683,0.079928,0.140769,-0.000851,0.015353,0.446921
9.7951,-0.211483,0.059515,0.147968,-0.000000,0.000000,0.000000,-0.035754,0.095688,0.145854,-0.002171,0.019361,0.447998
9.8493,-0.269514,0.083320,0.177136,-0.000000,0.000000,0.000000,-0.045374,0.109876,0.151552,-0.003899,0.023069,0.449194
9.9034,-0.310229,0.100569,0.196276,-0.608727,0.265179,0.269309,-0.053080,0.119034,0.155939,-0.005364,0.025546,0.450113
9.9624,-0.389620,0.135257,0.231173,-0.546721,0.248468,0.219193,-0.070174,0.134874,0.165392,-0.008786,0.030022,0.452094
10.0139,-0.438696,0.157682,0.250592,-0.506992,0.242624,0.177573,-0.081954,0.143200,0.171759,-0.011258,0.032534,0.453437
10.0657,-0.484129,0.179569,0.266215,-0.462509,0.235738,0.132995,-0.093564,0.149819,0.177926,-0.013782,0.034683,0.454753
10.1170,-0.525493,0.200822,0.277781,-0.413690,0.227846,0.086176,-0.104647,0.154899,0.183707,-0.016278,0.036497,0.456010
10.1725,-0.562401,0.221351,0.285096,-0.360989,0.218986,0.037868,-0.114893,0.158652,0.188936,-0.018675,0.038013,0.457176
10.2275,-0.588244,0.237731,0.286556,-0.602884,0.411784,-0.018724,-0.122238,0.160830,0.192524,-0.020481,0.039062,0.458016
10.2872,-0.622185,0.262580,0.282644,-0.697034,0.556569,-0.159698,-0.132096,0.163162,0.197097,-0.023047,0.040454,0.459157
10.3396,-0.641962,0.280484,0.274607,-0.528096,0.523706,-0.290358,-0.137964,0.164274,0.199579,-0.024708,0.041345,0.459854
10.3896,-0.656004,0.297250,0.262298,-0.354580,0.488866,-0.416608,-0.142224,0.165001,0.201110,-0.026056,0.042125,0.460380
10.4406,-0.664189,0.312814,0.245906,-0.178014,0.452179,-0.536443,-0.144816,0.165493,0.201685,-0.027065,0.042828,0.460732
10.4917,-0.669059,0.329615,0.224294,0.005140,0.277122,-0.438886,-0.146496,0.165930,0.201652,-0.027950,0.043583,0.461009
10.5439,-0.666917,0.342403,0.202285,0.129457,0.250279,-0.511389,-0.146130,0.166203,0.200681,-0.028308,0.044179,0.461062
10.5951,-0.658871,0.353897,0.176950,0.252655,0.222338,-0.575561,-0.144103,0.166402,0.198885,-0.028294,0.044748,0.460951
10.6488,-0.644992,0.364044,0.148701,0.373639,0.193419,-0.630415,-0.140467,0.166495,0.196355,-0.027907,0.045286,0.460690
10.6994,-0.625400,0.372802,0.117994,0.491333,0.163647,-0.675107,-0.135309,0.166412,0.193201,-0.027152,0.045780,0.460292
10.7526,-0.600270,0.380130,0.085325,0.604689,0.133146,-0.708952,-0.128746,0.166054,0.189544,-0.026043,0.046210,0.459777
10.8106,-0.569822,0.385997,0.051217,0.712699,0.102044,-0.731435,-0.120929,0.165302,0.185512,-0.024602,0.046547,0.459163
10.8637,-0.534887,0.389637,0.018126,1.196554,0.105520,-1.094514,-0.112215,0.164112,0.181359,-0.022872,0.046737,0.458478
10.9147,-0.492208,0.392208,-0.018322,1.328166,0.059550,-1.089737,-0.101916,0.162150,0.176738,-0.020737,0.046785,0.457679
10.9706,-0.445366,0.393240,-0.054267,1.448582,0.013322,-1.068388,-0.091098,0.159419,0.172163,-0.018401,0.046635,0.456850
11.0306,-0.394759,0.392726,-0.089163,1.556677,-0.032977,-1.030747,-0.080021,0.155867,0.167730,-0.015919,0.046262,0.456006
11.0910,-0.359464,0.391064,-0.110129,0.000000,-0.000000,-0.000000,-0.072735,0.153181,0.164980,-0.014226,0.045880,0.455451
11.1422,-0.298047,0.386762,-0.142722,2.334106,-0.163510,-1.238659,-0.060848,0.148010,0.160675,-0.011383,0.045012,0.454540
11.1994,-0.258814,0.383161,-0.161099,0.000000,-0.000000,-0.000000,-0.053787,0.144434,0.158215,-0.009647,0.044335,0.453992
11.2507,-0.191980,0.375670,-0.188409,2.539957,-0.284689,-1.037864,-0.042710,0.137954,0.154473,-0.006852,0.042986,0.453112
11.3092,-0.150132,0.370134,-0.202981,0.000000,-0.000000,-0.000000,-0.036378,0.133713,0.152388,-0.005214,0.042027,0.452593
11.3605,-0.080147,0.359490,-0.223198,0.000000,-0.000000,-0.000000,-0.026802,0.126416,0.149285,-0.002682,0.040251,0.451770
11.4140,-0.010724,0.347503,-0.239005,0.000000,-0.000000,-0.000000,-0.018502,0.118951,0.146590,-0.000443,0.038300,0.451004
11.4741,0.065015,0.332606,-0.250957,0.738126,-0.160739,-0.072352,-0.010746,0.110769,0.144032,0.001676,0.035992,0.450217
11.5251,0.131581,0.317928,-0.256983,0.715327,-0.174047,-0.020206,-0.004978,0.103648,0.142057,0.003248,0.033836,0.449562
11.5794,0.196029,0.302051,-0.258293,0.687137,-0.186726,0.031588,-0.000249,0.096954,0.140358,0.004500,0.031655,0.448955
11.6383,0.257873,0.285034,-0.254928,0.653719,-0.198720,0.082276,0.003579,0.090805,0.138898,0.005446,0.029490,0.448394
11.6902,0.316644,0.266940,-0.246995,0.615293,-0.209978,0.131113,0.006651,0.085276,0.137648,0.006103,0.027375,0.447880
11.7418,0.362214,0.250657,-0.235675,1.127243,-0.432574,0.345588,0.008747,0.081349,0.136775,0.006436,0.025681,0.447488
11.8009,0.414465,0.229795,-0.217981,1.033186,-0.449650,0.426533,0.010862,0.077120,0.135866,0.006616,0.023687,0.447053
11.8605,0.462124,0.208143,-0.196543,0.931746,-0.465181,0.500154,0.012565,0.073525,0.135129,0.006573,0.021805,0.446671
11.9143,0.500679,0.186890,-0.172209,1.220504,-0.706143,0.830890,0.013851,0.070874,0.134623,0.006341,0.020168,0.446368
11.9656,0.537984,0.162993,-0.142864,1.053887,-0.721483,0.908228,0.014991,0.068429,0.134231,0.005924,0.018477,0.446092
12.0186,0.569587,0.138633,-0.111234,0.880576,-0.734491,0.971153,0.015866,0.066416,0.134012,0.005362,0.016894,0.445879
12.0715,0.595291,0.113888,-0.077822,0.701870,-0.745068,1.018682,0.016479,0.064756,0.133962,0.004679,0.015402,0.445730
12.1260,0.614944,0.088843,-0.043158,0.519135,-0.753130,1.050072,0.016810,0.063363,0.134074,0.003897,0.013984,0.445642
12.1762,0.628442,0.063581,-0.007789,0.333795,-0.758608,1.064834,0.016825,0.062151,0.134332,0.003036,0.012616,0.445613
12.2293,0.635728,0.038192,0.027724,0.147312,-0.761444,1.062743,0.016482,0.061030,0.134717,0.002116,0.011274,0.445641
12.2828,0.636793,0.012763,0.062819,-0.038821,-0.761596,1.043836,0.015737,0.059904,0.135201,0.001153,0.009932,0.445718
12.3435,0.628851,-0.022246,0.109737,-0.283119,-0.963215,1.279685,0.014038,0.058181,0.135981,-0.000206,0.008037,0.445898
12.4022,0.615360,-0.047415,0.141694,-0.512723,-0.956498,1.214499,0.012205,0.056636,0.136564,-0.001190,0.006590,0.446066
12.4569,0.595988,-0.072315,0.171431,-0.736194,-0.946312,1.130106,0.009896,0.054717,0.137122,-0.002146,0.005057,0.446258
12.5070,0.580463,-0.087529,0.188198,0.000000,-0.000000,-0.000000,0.008167,0.053230,0.137417,-0.002714,0.004043,0.446379
12.5590,0.549147,-0.112465,0.213055,0.000000,-0.000000,-0.000000,0.004855,0.050142,0.137799,-0.003595,0.002231,0.446581
12.6124,0.512796,-0.136787,0.234331,0.000000,-0.000000,-0.000000,0.001237,0.046304,0.138064,-0.004354,0.000278,0.446783
12.6684,0.471748,-0.160413,0.251710,0.000000,-0.000000,-0.000000,-0.002563,0.041596,0.138193,-0.004958,-0.001823,0.446978
12.7209,0.426381,-0.183265,0.264937,0.000000,-0.000000,-0.000000,-0.006393,0.035915,0.138181,-0.005369,-0.004076,0.447160
12.7819,0.371282,-0.207594,0.274307,-0.582704,-0.232881,0.048766,-0.010469,0.028335,0.138002,-0.005555,-0.006752,0.447343
12.8321,0.300517,-0.235876,0.280229,0.000000,-0.000000,-0.000000,-0.014601,0.017724,0.137713,-0.005350,-0.010156,0.447564
12.8843,0.246969,-0.255087,0.279936,0.000000,-0.000000,-0.000000,-0.016844,0.009034,0.137453,-0.004874,-0.012691,0.447713
12.9428,0.184302,-0.275202,0.274131,-0.644792,-0.189585,-0.101673,-0.018415,-0.001861,0.137121,-0.003981,-0.015597,0.447860
12.9940,0.125781,-0.292233,0.264460,-0.662154,-0.177061,-0.148755,-0.018752,-0.012609,0.136865,-0.002831,-0.018248,0.447988
13.0441,0.065752,-0.308123,0.250552,-0.673243,-0.163825,-0.193425,-0.017876,-0.024116,0.136711,-0.001341,-0.020888,0.448116
13.0972,0.004783,-0.322808,0.232634,-0.677995,-0.149930,-0.234983,-0.015638,-0.036178,0.136728,0.000486,-0.023468,0.448254
13.1504,-0.056553,-0.336230,0.210992,-0.676403,-0.135433,-0.272782,-0.011940,-0.048552,0.136983,0.002636,-0.025937,0.448409
13.2038,-0.117682,-0.348335,0.185973,-0.668509,-0.120392,-0.306228,-0.006754,-0.060971,0.137535,0.005082,-0.028248,0.448588
13.2590,-0.178034,-0.359074,0.157977,-0.654410,-0.104866,-0.334800,-0.000123,-0.073160,0.138431,0.007782,-0.030354,0.448797
13.3104,-0.237050,-0.368404,0.127449,-0.634256,-0.088919,-0.358050,0.007837,-0.084849,0.139702,0.010683,-0.032219,0.449041
13.3616,-0.294184,-0.376287,0.094873,-0.608248,-0.072614,-0.375616,0.016937,-0.095797,0.141356,0.013724,-0.033813,0.449319
13.4147,-0.348908,-0.382692,0.060767,-0.576638,-0.056015,-0.387225,0.026928,-0.105802,0.143378,0.016833,-0.035121,0.449630
13.4659,-0.400719,-0.387593,0.025673,-0.539724,-0.039189,-0.392695,0.037512,-0.114715,0.145730,0.019935,-0.036138,0.449967
13.5159,-0.449140,-0.390969,-0.009855,-0.497851,-0.022203,-0.391945,0.048359,-0.122444,0.148348,0.022954,-0.036870,0.450321
13.5661,-0.493726,-0.392807,-0.045252,-0.451406,-0.005124,-0.384987,0.059125,-0.128960,0.151148,0.025816,-0.037338,0.450679
13.6183,-0.534068,-0.393100,-0.079959,-0.400815,0.011980,-0.371935,0.069469,-0.134287,0.154025,0.028449,-0.037568,0.451026
13.6740,-0.569795,-0.391845,-0.113426,-0.346539,0.029040,-0.352996,0.079067,-0.138493,0.156863,0.030792,-0.037596,0.451344
13.7320,-0.606071,-0.388174,-0.151364,-0.549236,0.087380,-0.624093,0.089176,-0.142203,0.160037,0.033135,-0.037408,0.451659
13.7836,-0.630485,-0.383526,-0.180226,-0.434974,0.119246,-0.567619,0.096132,-0.144319,0.162340,0.034653,-0.037121,0.451850
13.8353,-0.649395,-0.377368,-0.206260,-0.316670,0.150647,-0.502163,0.101543,-0.145679,0.164208,0.035739,-0.036747,0.451956
13.8868,-0.662626,-0.369723,-0.229056,-0.195390,0.181460,-0.428759,0.105253,-0.146383,0.165536,0.036370,-0.036310,0.451963
13.9419,-0.670052,-0.360621,-0.248252,-0.072226,0.211560,-0.348569,0.107149,-0.146498,0.166235,0.036532,-0.035828,0.451860
13.9963,-0.671600,-0.350098,-0.263545,0.051716,0.240831,-0.262859,0.107163,-0.146052,0.166245,0.036220,-0.035304,0.451641
14.0575,-0.664750,-0.334357,-0.277160,0.250065,0.383900,-0.246728,0.104322,-0.144586,0.165166,0.035110,-0.034548,0.451178
14.1085,-0.652793,-0.320733,-0.282663,0.424309,0.422789,-0.114618,0.099995,-0.142683,0.163510,0.033739,-0.033879,0.450692
14.1604,-0.635092,-0.305845,-0.283718,0.594932,0.460015,0.019324,0.093884,-0.139960,0.161172,0.031943,-0.033099,0.450103
14.2140,-0.611801,-0.289752,-0.280306,0.760408,0.495429,0.152984,0.086126,-0.136240,0.158227,0.029757,-0.032162,0.449429
14.2682,-0.583122,-0.272516,-0.272480,0.919256,0.528892,0.284251,0.076911,-0.131321,0.154783,0.027231,-0.031018,0.448691
14.3187,-0.549306,-0.254206,-0.260364,1.070055,0.560272,0.411054,0.066495,-0.124988,0.150975,0.024423,-0.029615,0.447914
14.3720,-0.510648,-0.234894,-0.244147,1.211455,0.589444,0.531392,0.055192,-0.117035,0.146966,0.021406,-0.027902,0.447129
14.4311,-0.467490,-0.214656,-0.224085,1.342194,0.616292,0.643364,0.043377,-0.107284,0.142937,0.018266,-0.025833,0.446368
14.4825,-0.417161,-0.192554,-0.198463,1.912719,0.839960,0.973743,0.030751,-0.094831,0.138851,0.014909,-0.023227,0.445629
14.5390,-0.363431,-0.169786,-0.169900,2.041952,0.865308,1.085539,0.018739,-0.080364,0.135240,0.011679,-0.020202,0.445002
14.5896,-0.306750,-0.146431,-0.138828,2.154100,0.887561,1.180864,0.007827,-0.063961,0.132287,0.008682,-0.016766,0.444518
14.6429,-0.247597,-0.122576,-0.105722,2.248073,0.906601,1.258154,-0.001517,-0.045810,0.130156,0.006020,-0.012952,0.444204
14.7047,-0.186474,-0.098307,-0.071091,-0.000000,0.000000,0.000000,-0.008878,-0.026203,0.128979,0.003784,-0.008814,0.444082
14.7568,-0.123902,-0.073713,-0.035467,-0.000000,0.000000,0.000000,-0.013917,-0.005530,0.128851,0.002049,-0.004425,0.444166
14.8084,-0.060418,-0.048887,0.000599,-0.000000,0.000000,0.000000,-0.016405,0.015749,0.129822,0.000870,0.000124,0.444462
14.8628,0.003431,-0.023920,0.036549,-0.000000,0.000000,0.000000,-0.016232,0.037132,0.131896,0.000277,0.004736,0.444969
14.9155,0.050095,-0.005559,0.062317,0.719582,0.285400,0.389756,-0.014428,0.052533,0.134082,0.000217,0.008092,0.445467
14.9717,0.115046,0.020243,0.097380,0.703217,0.282966,0.369204,-0.009619,0.073417,0.138038,0.000649,0.012696,0.446334
15.0249,0.178459,0.045814,0.130529,0.681132,0.279566,0.343212,-0.002438,0.092917,0.142881,0.001639,0.017063,0.447370
15.0770,0.239818,0.071069,0.161276,0.653476,0.275202,0.312154,0.006720,0.110678,0.148433,0.003111,0.021118,0.448542
15.1320,0.298621,0.095919,0.189166,0.620452,0.269876,0.276491,0.017395,0.126458,0.154494,0.004979,0.024807,0.449815
15.1880,0.354384,0.120277,0.213789,0.582313,0.263599,0.236754,0.029093,0.140125,0.160848,0.007145,0.028096,0.451149
15.2408,0.397451,0.140127,0.230552,1.062840,0.504358,0.383205,0.039072,0.149692,0.166072,0.009076,0.030496,0.452255
15.2913,0.446643,0.163888,0.247446,0.969313,0.487350,0.294360,0.051389,0.159528,0.172357,0.011548,0.033070,0.453599
15.3455,0.491267,0.186815,0.260050,0.868363,0.468786,0.201634,0.063327,0.167391,0.178296,0.014033,0.035251,0.454890
15.3963,0.530982,0.208835,0.268200,0.760779,0.448704,0.106418,0.074495,0.173509,0.183707,0.016448,0.037080,0.456096
15.4487,0.565485,0.229877,0.271799,0.647419,0.427154,0.010152,0.084571,0.178139,0.188436,0.018718,0.038605,0.457188
15.5034,0.594514,0.249870,0.270820,0.529200,0.404193,-0.085703,0.093300,0.181547,0.192364,0.020781,0.039878,0.458143
15.5573,0.617854,0.268749,0.265303,0.407092,0.379888,-0.179686,0.100488,0.183983,0.195404,0.022586,0.040951,0.458942
15.6077,0.635335,0.286451,0.255362,0.282104,0.354311,-0.270362,0.105995,0.185672,0.197502,0.024093,0.041871,0.459574
15.6630,0.646835,0.302917,0.241173,0.155281,0.327543,-0.356345,0.109731,0.186793,0.198639,0.025271,0.042677,0.460031
15.7195,0.652283,0.318092,0.222981,0.027687,0.299670,-0.436317,0.111648,0.187482,0.198830,0.026098,0.043401,0.460312
15.7700,0.649765,0.330665,0.201284,-0.140703,0.400926,-0.747471,0.111157,0.187701,0.197868,0.026413,0.044010,0.460355
15.8304,0.637281,0.347677,0.163838,-0.406587,0.453156,-1.062620,0.107843,0.187555,0.195266,0.026347,0.044859,0.460192
15.8806,0.620700,0.358103,0.133315,-0.630159,0.396224,-1.160018,0.103272,0.186987,0.192490,0.025821,0.045401,0.459886
15.9336,0.599794,0.368073,0.100061,-0.647400,0.253691,-0.939076,0.097522,0.186039,0.189286,0.025037,0.045914,0.459497
15.9870,0.574730,0.375605,0.067661,-0.813913,0.208352,-0.989507,0.090704,0.184632,0.185836,0.023949,0.046294,0.459018
16.0382,0.544272,0.381609,0.033915,-0.972364,0.162323,-1.023537,0.082594,0.182603,0.182023,0.022534,0.046563,0.458440
16.0886,0.508718,0.386066,-0.000617,-1.121422,0.115772,-1.040701,0.073407,0.179846,0.177976,0.020826,0.046694,0.457786
16.1405,0.468407,0.388961,-0.035369,-1.259834,0.068874,-1.040793,0.063393,0.176268,0.173816,0.018865,0.046657,0.457073
16.1906,0.423719,0.390286,-0.069772,-1.386432,0.021803,-1.023873,0.052821,0.171800,0.169655,0.016700,0.046427,0.456321
16.2513,0.356034,0.389719,-0.115831,-1.903697,-0.032061,-1.256644,0.037914,0.164130,0.164100,0.013501,0.045758,0.455257
16.3049,0.302607,0.387310,-0.147236,-2.030448,-0.091558,-1.193542,0.027143,0.157487,0.160292,0.011076,0.044991,0.454476
16.3636,0.246335,0.383347,-0.176471,0.000000,-0.000000,-0.000000,0.016758,0.150024,0.156742,0.008646,0.043987,0.453706
16.4163,0.187731,0.377849,-0.203061,0.000000,-0.000000,-0.000000,0.006992,0.141862,0.153485,0.006270,0.042753,0.452954
16.4747,0.120517,0.369900,-0.228789,-0.681305,-0.093851,-0.221602,-0.002902,0.132189,0.150236,0.003758,0.041135,0.452148
16.5260,0.037779,0.358503,-0.255700,0.000000,-0.000000,-0.000000,-0.013229,0.119817,0.146783,0.001006,0.038886,0.451228
16.5773,-0.022040,0.348911,-0.271146,0.000000,-0.000000,-0.000000,-0.019452,0.110805,0.144632,-0.000736,0.037115,0.450605
16.6283,-0.082215,0.337881,-0.282614,0.000000,-0.000000,-0.000000,-0.024718,0.101881,0.142729,-0.002272,0.035237,0.450009
16.6811,-0.142164,0.325462,-0.289897,0.000000,-0.000000,-0.000000,-0.029044,0.093226,0.141050,-0.003580,0.033286,0.449440
16.7407,-0.207692,0.310048,-0.292696,-0.638446,-0.166088,0.015868,-0.032822,0.084155,0.139425,-0.004751,0.031082,0.448842
16.8008,-0.276980,0.291475,-0.289552,-1.172704,-0.341026,0.122356,-0.035857,0.075086,0.137898,-0.005688,0.028688,0.448232
16.8518,-0.332046,0.274866,-0.282340,-1.121234,-0.365059,0.213023,-0.037655,0.068299,0.136800,-0.006204,0.026748,0.447761
16.9116,-0.399606,0.251608,-0.266568,-1.510693,-0.552812,0.428868,-0.039253,0.060581,0.135578,-0.006548,0.024326,0.447199
16.9618,-0.447922,0.232531,-0.249790,-1.407895,-0.582658,0.547593,-0.040064,0.055498,0.134786,-0.006583,0.022558,0.446807
17.0229,-0.512611,0.204196,-0.221407,-1.234176,-0.586260,0.635675,-0.040733,0.049114,0.133839,-0.006340,0.020167,0.446312
17.0729,-0.551275,0.184058,-0.198059,-1.111160,-0.613397,0.738210,-0.041015,0.045656,0.133358,-0.005996,0.018677,0.446029
17.1322,-0.597989,0.154979,-0.161011,-1.239443,-0.809321,1.051932,-0.041290,0.041826,0.132907,-0.005320,0.016766,0.445712
17.1841,-0.625776,0.132964,-0.130744,-1.056001,-0.836640,1.150297,-0.041454,0.039744,0.132755,-0.004701,0.015483,0.445542
17.2376,-0.648445,0.110328,-0.098370,-0.861532,-0.860289,1.230353,-0.041575,0.038119,0.132751,-0.003992,0.014267,0.445424
17.2907,-0.665757,0.087167,-0.064404,-0.657911,-0.880207,1.290852,-0.041627,0.036877,0.132895,-0.003206,0.013104,0.445360
17.3471,-0.677521,0.063581,-0.029385,-0.447083,-0.896346,1.330854,-0.041566,0.035943,0.133181,-0.002356,0.011973,0.445349
17.4048,-0.683600,0.039672,0.006131,-0.231042,-0.908670,1.349741,-0.041340,0.035236,0.133595,-0.001452,0.010854,0.445390
17.4613,-0.683793,0.024710,0.028108,0.000000,-0.000000,-0.000000,-0.041062,0.034890,0.133904,-0.000867,0.010153,0.445439
17.5154,-0.678316,-0.000375,0.064148,0.000000,-0.000000,-0.000000,-0.040315,0.034372,0.134482,0.000139,0.008949,0.445555
17.5695,-0.667065,-0.025405,0.098899,0.000000,-0.000000,-0.000000,-0.039236,0.033821,0.135114,0.001158,0.007690,0.445711
17.6356,-0.650115,-0.050288,0.131837,0.000000,-0.000000,-0.000000,-0.037785,0.033133,0.135762,0.002170,0.006351,0.445899
17.6894,-0.642899,-0.058184,0.141652,0.000000,-0.000000,-0.000000,-0.037188,0.032840,0.135950,0.002492,0.005893,0.445960
17.7447,-0.629522,-0.069425,0.154300,0.399129,-0.296637,0.311709,-0.036072,0.032242,0.136152,0.002963,0.005179,0.446038
17.8050,-0.595319,-0.092238,0.176377,1.285903,-0.829744,0.780350,-0.033190,0.030410,0.136393,0.003908,0.003544,0.446178
17.8554,-0.573803,-0.105719,0.188681,0.519823,-0.295112,0.240110,-0.031435,0.029127,0.136526,0.004423,0.002515,0.446271
17.9054,-0.544045,-0.122260,0.201731,0.579443,-0.293626,0.198130,-0.029038,0.027104,0.136599,0.005016,0.001132,0.446376
17.9559,-0.510978,-0.138702,0.212387,0.635456,-0.290594,0.152231,-0.026448,0.024534,0.136575,0.005543,-0.000384,0.446471
18.0097,-0.474811,-0.154959,0.220437,0.687278,-0.286049,0.103180,-0.023741,0.021348,0.136454,0.005981,-0.002035,0.446555
18.0682,-0.421830,-0.176266,0.226695,1.395300,-0.532056,0.098408,-0.020083,0.015990,0.136146,0.006386,-0.004457,0.446648
18.1185,-0.369164,-0.196115,0.229852,0.750977,-0.262949,-0.002859,-0.016986,0.010085,0.135840,0.006535,-0.006899,0.446745
18.1773,-0.326658,-0.210783,0.229157,0.788586,-0.254655,-0.056245,-0.014883,0.004814,0.135560,0.006469,-0.008878,0.446810
18.2366,-0.287274,-0.222927,0.224873,1.598710,-0.478612,-0.210703,-0.013254,-0.000580,0.135244,0.006262,-0.010710,0.446845
18.2945,-0.215932,-0.243249,0.212734,2.344771,-0.651905,-0.441203,-0.011344,-0.011141,0.134761,0.005539,-0.014029,0.446911
18.3494,-0.166431,-0.256039,0.200800,2.391207,-0.617853,-0.576509,-0.010876,-0.019045,0.134520,0.004775,-0.016318,0.446959
18.4063,-0.140545,-0.262253,0.193264,1.695983,-0.407113,-0.493737,-0.010931,-0.023368,0.134432,0.004290,-0.017505,0.446983
18.4616,-0.088930,-0.273768,0.175847,2.493336,-0.556282,-0.841336,-0.011703,-0.032310,0.134368,0.003149,-0.019844,0.447037
18.5303,-0.062400,-0.279253,0.165717,0.000000,-0.000000,-0.000000,-0.012461,-0.037046,0.134405,0.002472,-0.021026,0.447069
18.5948,-0.026188,-0.286029,0.150014,0.931856,-0.163784,-0.431315,-0.013906,-0.043701,0.134535,0.001451,-0.022609,0.447112
18.6507,0.025801,-0.295025,0.125603,0.903009,-0.144567,-0.452716,-0.016854,-0.053359,0.134946,-0.000209,-0.024811,0.447199
18.7069,0.067429,-0.301690,0.104733,0.000000,-0.000000,-0.000000,-0.019973,-0.061089,0.135488,-0.001700,-0.026502,0.447294
18.7598,0.101084,-0.306382,0.086276,0.849423,-0.107644,-0.489046,-0.022998,-0.067352,0.136066,-0.003008,-0.027804,0.447381
18.8171,0.148247,-0.312210,0.058830,0.800375,-0.086535,-0.490120,-0.027994,-0.076000,0.137114,-0.004988,-0.029524,0.447526
18.8746,0.171128,-0.314528,0.044540,0.767421,-0.067386,-0.497692,-0.030737,-0.080124,0.137724,-0.006006,-0.030301,0.447603
18.9306,0.206797,-0.317180,0.020643,1.381603,-0.089846,-0.946155,-0.035420,-0.086402,0.138803,-0.007660,-0.031412,0.447726
18.9839,0.245650,-0.319188,-0.006699,1.254488,-0.047608,-0.907168,-0.041062,-0.092937,0.140175,-0.009549,-0.032493,0.447875
19.0407,0.280631,-0.319946,-0.032707,1.119549,-0.005165,-0.856276,-0.046593,-0.098466,0.141575,-0.011313,-0.033325,0.448017
19.0982,0.311523,-0.319450,-0.057041,0.977799,0.037317,-0.794146,-0.051796,-0.102983,0.142927,-0.012903,-0.033917,0.448140
19.1546,0.336822,-0.317068,-0.078984,1.222094,0.115074,-1.059971,-0.056199,-0.106227,0.144053,-0.014193,-0.034214,0.448209
19.2166,0.357587,-0.313446,-0.098473,1.003082,0.174972,-0.941469,-0.059853,-0.108479,0.144961,-0.015221,-0.034298,0.448236
19.2702,0.373720,-0.308597,-0.115270,0.779351,0.234211,-0.811392,-0.062628,-0.109773,0.145589,-0.015965,-0.034183,0.448211
19.3245,0.385161,-0.302541,-0.129173,0.552653,0.292554,-0.671607,-0.064427,-0.110134,0.145890,-0.016409,-0.033879,0.448130
19.3794,0.391884,-0.295300,-0.140024,0.324777,0.349770,-0.524146,-0.065191,-0.109581,0.145833,-0.016545,-0.033393,0.447988
19.4355,0.392928,-0.290960,-0.143996,-0.000000,0.000000,0.000000,-0.065042,-0.108825,0.145610,-0.016458,-0.033048,0.447883
19.4880,0.388767,-0.275235,-0.151509,-0.158121,0.597586,-0.285525,-0.062892,-0.104915,0.144310,-0.015704,-0.031648,0.447456
19.5481,0.385118,-0.269814,-0.152146,-0.239066,0.355175,-0.041736,-0.061717,-0.103219,0.143731,-0.015327,-0.031118,0.447298
19.6100,0.380090,-0.265326,-0.150869,-0.294338,0.238118,0.092734,-0.060356,-0.101485,0.143131,-0.014910,-0.030634,0.447155
19.6736,0.362856,-0.251805,-0.145128,-0.366521,0.254348,0.146594,-0.055971,-0.095827,0.141267,-0.013578,-0.029103,0.446730
19.7316,0.342999,-0.238952,-0.136502,-0.844715,0.525467,0.382668,-0.051367,-0.089696,0.139419,-0.012192,-0.027523,0.446334
19.7959,0.316231,-0.223032,-0.123845,-0.964351,0.551986,0.471648,-0.045660,-0.081463,0.137229,-0.010466,-0.025443,0.445880
19.8533,0.283740,-0.205566,-0.107165,-1.569563,0.843714,0.805735,-0.039474,-0.071511,0.134999,-0.008577,-0.022986,0.445436
19.9121,0.248358,-0.187460,-0.088417,-1.709167,0.874676,0.905645,-0.033570,-0.060498,0.133018,-0.006733,-0.020291,0.445053
19.9644,0.228747,-0.177800,-0.077821,-0.000000,0.000000,0.000000,-0.030672,-0.054340,0.132115,-0.005805,-0.018792,0.444884
20.0209,0.187584,-0.158094,-0.055358,-0.000000,0.000000,0.000000,-0.025445,-0.041286,0.130649,-0.004068,-0.015623,0.444618
20.0815,0.144654,-0.137969,-0.031883,-0.000000,0.000000,0.000000,-0.021215,-0.027484,0.129710,-0.002552,-0.012269,0.444461
20.1503,0.092272,-0.113793,-0.003431,-0.807308,0.369995,0.434163,-0.017744,-0.010518,0.129352,-0.001109,-0.008129,0.444428
20.2117,0.046880,-0.092999,0.020900,-0.817536,0.373723,0.431591,-0.016228,0.004193,0.129718,-0.000216,-0.004515,0.444533
20.2690,0.006912,-0.074696,0.041680,-1.600896,0.733926,0.824205,-0.016029,0.016993,0.130533,0.000296,-0.001338,0.444723
20.3333,-0.062870,-0.042528,0.076822,-2.267884,1.048263,1.129727,-0.018168,0.038931,0.133023,0.000585,0.004184,0.445265
20.3938,-0.086763,-0.031332,0.088233,-1.565390,0.733487,0.747625,-0.019608,0.046236,0.134167,0.000509,0.006056,0.445508
20.4555,-0.110720,-0.019894,0.099098,-0.000000,0.000000,0.000000,-0.021401,0.053413,0.135446,0.000344,0.007922,0.445779
20.5074,-0.134504,-0.008261,0.109222,-0.000000,0.000000,0.000000,-0.023519,0.060380,0.136841,0.000092,0.009763,0.446072
20.5613,-0.179727,0.014524,0.127015,-0.000000,0.000000,0.000000,-0.028452,0.073203,0.139834,-0.000627,0.013227,0.446704
20.6175,-0.222491,0.036875,0.142210,-0.000000,0.000000,0.000000,-0.034174,0.084785,0.143066,-0.001596,0.016445,0.447389
20.6678,-0.249922,0.052071,0.150356,-0.676625,0.389976,0.173969,-0.038360,0.091889,0.145308,-0.002369,0.018493,0.447870
20.7286,-0.287266,0.073830,0.159562,-0.615236,0.378126,0.118612,-0.044685,0.101147,0.148571,-0.003614,0.021253,0.448579
20.7906,-0.331560,0.101852,0.166827,-1.043736,0.693827,0.117784,-0.053093,0.111497,0.152723,-0.005391,0.024507,0.449506
20.8595,-0.360351,0.121931,0.168651,-0.910961,0.667174,0.009438,-0.059078,0.117866,0.155568,-0.006738,0.026635,0.450164
20.9160,-0.383865,0.141319,0.165765,-1.135909,0.936554,-0.139454,-0.064296,0.122937,0.157922,-0.008000,0.028486,0.450741
20.9681,-0.403070,0.159775,0.159779,-0.927705,0.891564,-0.289164,-0.068809,0.127054,0.159875,-0.009164,0.030111,0.451252
21.0218,-0.417844,0.177248,0.150815,-0.713713,0.844067,-0.433000,-0.072496,0.130328,0.161391,-0.010194,0.031531,0.451688
21.0854,-0.428106,0.193689,0.139041,-0.495696,0.794195,-0.568766,-0.075269,0.132865,0.162450,-0.011059,0.032766,0.452043
21.1433,-0.431283,0.204243,0.128559,-0.022989,0.261262,-0.305085,-0.076353,0.134089,0.162781,-0.011496,0.033490,0.452213
21.1960,-0.432343,0.216287,0.114495,-0.000000,0.000000,0.000000,-0.077059,0.135216,0.162914,-0.011900,0.034271,0.452368
21.2619,-0.427709,0.231943,0.091613,0.137845,0.218416,-0.372323,-0.076743,0.136128,0.162543,-0.012194,0.035200,0.452479
21.3146,-0.422895,0.238114,0.080467,0.219494,0.202054,-0.407124,-0.076021,0.136243,0.162147,-0.012192,0.035530,0.452479
21.3655,-0.409829,0.249218,0.057451,0.294652,0.178961,-0.424795,-0.073867,0.136097,0.161105,-0.012015,0.036073,0.452421
21.4264,-0.385613,0.261977,0.025231,0.696620,0.295415,-0.827921,-0.069696,0.135200,0.159301,-0.011450,0.036594,0.452244
21.4815,-0.363067,0.270010,0.000668,0.826227,0.250210,-0.835643,-0.065808,0.134043,0.157744,-0.010816,0.036838,0.452055
21.5359,-0.336819,0.276701,-0.023922,0.947564,0.204557,-0.830155,-0.061359,0.132461,0.156061,-0.010015,0.036949,0.451824
21.5863,-0.307131,0.282039,-0.048149,1.059608,0.158607,-0.811546,-0.056472,0.130465,0.154305,-0.009071,0.036925,0.451558
21.6381,-0.266918,0.287736,-0.078372,0.592092,0.056346,-0.395896,-0.050127,0.127461,0.152111,-0.007785,0.036757,0.451209
21.6978,-0.236616,0.289786,-0.097042,1.248216,0.064180,-0.730388,-0.045592,0.125095,0.150635,-0.006808,0.036490,0.450945
21.7526,-0.198554,0.290982,-0.117768,1.327289,0.018388,-0.675320,-0.040189,0.121996,0.148938,-0.005601,0.036048,0.450622
21.8046,-0.158349,0.290831,-0.136702,1.393835,-0.027088,-0.609472,-0.034837,0.118618,0.147316,-0.004365,0.035474,0.450291
21.8650,-0.116378,0.289344,-0.153544,1.447306,-0.072090,-0.533889,-0.029636,0.115021,0.145788,-0.003128,0.034773,0.449955
21.9372,-0.071306,0.285848,-0.167251,2.177253,-0.168895,-0.662151,-0.024485,0.111233,0.144342,-0.001870,0.033909,0.449605
21.9939,-0.047642,0.283377,-0.172931,0.000000,-0.000000,-0.000000,-0.021948,0.109275,0.143650,-0.001242,0.033417,0.449426
22.0528,-0.023183,0.280190,-0.177271,0.000000,-0.000000,-0.000000,-0.019443,0.107322,0.142988,-0.000618,0.032879,0.449242
22.1166,0.010587,0.274696,-0.180631,0.874452,-0.159095,-0.046858,-0.016164,0.104763,0.142157,0.000199,0.032088,0.448993
22.1673,0.059440,0.265571,-0.182698,0.854157,-0.179060,0.009317,-0.011755,0.101114,0.141054,0.001283,0.030871,0.448638
22.2353,0.100323,0.256279,-0.180627,1.615218,-0.385904,0.124125,-0.008341,0.098221,0.140233,0.002096,0.029774,0.448346
22.2878,0.146994,0.244360,-0.175382,1.548375,-0.420252,0.227609,-0.004728,0.094981,0.139372,0.002912,0.028448,0.448018
22.3603,0.212466,0.224994,-0.162479,2.095912,-0.645973,0.466488,-0.000126,0.090560,0.138295,0.003837,0.026453,0.447569
22.4180,0.233515,0.217611,-0.156054,0.000000,-0.000000,-0.000000,0.001254,0.089206,0.137989,0.004072,0.025760,0.447426
22.4732,0.272352,0.202090,-0.140725,0.000000,-0.000000,-0.000000,0.003683,0.086775,0.137478,0.004412,0.024393,0.447162
22.5242,0.329605,0.175812,-0.112293,2.175869,-0.998655,1.080533,0.006961,0.083184,0.136840,0.004677,0.022216,0.446792
22.5758,0.360274,0.159375,-0.093258,1.481527,-0.794042,0.919541,0.008560,0.081226,0.136569,0.004678,0.020936,0.446605
22.6343,0.387173,0.142264,-0.072487,0.000000,-0.000000,-0.000000,0.009851,0.079438,0.136390,0.004559,0.019675,0.446446
22.6955,0.410095,0.124551,-0.050323,0.000000,-0.000000,-0.000000,0.010829,0.077778,0.136296,0.004330,0.018429,0.446315
22.7546,0.431448,0.102975,-0.022880,0.258170,-0.333329,0.425011,0.011541,0.075921,0.136281,0.003930,0.016974,0.446198
22.8176,0.445149,0.084207,0.001009,0.179922,-0.340111,0.429677,0.011789,0.074362,0.136335,0.003498,0.015741,0.446127
22.8684,0.451624,0.067458,0.021904,0.200274,-0.673991,0.834103,0.011568,0.072937,0.136408,0.003042,0.014652,0.446084
22.9297,0.458734,0.035611,0.060904,0.041144,-0.657446,0.786588,0.010700,0.070115,0.136629,0.002102,0.012577,0.446054
22.9856,0.457638,0.016118,0.083671,-0.110263,-0.662755,0.756552,0.009707,0.068183,0.136774,0.001477,0.011279,0.446062
23.0414,0.452097,-0.003491,0.105361,-0.259943,-0.665348,0.714110,0.008329,0.065983,0.136899,0.000824,0.009929,0.446083
23.0972,0.442184,-0.023134,0.125620,-0.406610,-0.665219,0.659956,0.006580,0.063444,0.136983,0.000160,0.008514,0.446114
23.1498,0.428005,-0.042732,0.144114,-0.549001,-0.662374,0.594970,0.004488,0.060487,0.137009,-0.000496,0.007023,0.446151
23.2114,0.409705,-0.062205,0.160540,-0.685891,-0.656831,0.520200,0.002098,0.057039,0.136962,-0.001123,0.005445,0.446191
23.2644,0.385060,-0.081882,0.173855,-1.190528,-0.950518,0.643192,-0.000765,0.052674,0.136760,-0.001717,0.003690,0.446215
23.3244,0.356831,-0.101209,0.184471,-1.363628,-0.933617,0.512843,-0.003737,0.047654,0.136472,-0.002223,0.001833,0.446237
23.3933,0.325279,-0.120111,0.192219,0.000000,-0.000000,-0.000000,-0.006710,0.041925,0.136105,-0.002616,-0.000127,0.446255
23.4465,0.307400,-0.129625,0.194678,0.000000,-0.000000,-0.000000,-0.008239,0.038602,0.135869,-0.002766,-0.001189,0.446258
23.5007,0.269157,-0.147959,0.196492,0.000000,-0.000000,-0.000000,-0.011135,0.031277,0.135331,-0.002935,-0.003386,0.446254
23.5537,0.240404,-0.160196,0.195038,-0.777935,-0.310431,-0.078632,-0.012974,0.025549,0.134906,-0.002938,-0.004986,0.446241
23.6148,0.181188,-0.183085,0.187575,-1.530069,-0.562024,-0.251468,-0.015789,0.013261,0.134102,-0.002646,-0.008217,0.446219
23.6808,0.108525,-0.209103,0.174233,-1.516395,-0.512933,-0.340930,-0.017334,-0.002425,0.133430,-0.001769,-0.012111,0.446251
23.7316,0.063317,-0.223782,0.162746,-1.544868,-0.482391,-0.434021,-0.017198,-0.012509,0.133181,-0.000941,-0.014464,0.446291
23.7847,0.017479,-0.237531,0.148617,-1.559496,-0.450035,-0.520121,-0.016165,-0.022936,0.133087,0.000111,-0.016783,0.446349
23.8515,-0.050830,-0.256233,0.123545,-2.225278,-0.593332,-0.852763,-0.012900,-0.038681,0.133311,0.002067,-0.020098,0.446479
23.9030,-0.096503,-0.267464,0.103878,-2.206303,-0.542545,-0.950034,-0.009532,-0.049275,0.133734,0.003625,-0.022200,0.446596
23.9569,-0.119698,-0.272705,0.092833,0.000000,-0.000000,-0.000000,-0.007450,-0.054662,0.134041,0.004490,-0.023225,0.446664
24.0109,-0.192097,-0.287676,0.055242,-2.751482,-0.568955,-1.428623,0.000660,-0.071241,0.135467,0.007499,-0.026231,0.446931
24.0613,-0.233777,-0.295457,0.031773,-2.013391,-0.375915,-1.133695,0.006425,-0.080498,0.136636,0.009434,-0.027814,0.447130
24.1174,-0.254316,-0.298865,0.019313,0.000000,-0.000000,-0.000000,0.009563,-0.084983,0.137310,0.010437,-0.028543,0.447236
24.1710,-0.292817,-0.304419,-0.005691,0.000000,-0.000000,-0.000000,0.015967,-0.093203,0.138758,0.012398,-0.029810,0.447450
24.2251,-0.350555,-0.311371,-0.045731,-2.194278,-0.264187,-1.521703,0.026780,-0.104862,0.141407,0.015527,-0.031464,0.447824
24.2910,-0.366862,-0.312871,-0.057829,0.000000,-0.000000,-0.000000,0.030086,-0.107987,0.142261,0.016444,-0.031867,0.447939
24.3466,-0.396028,-0.314590,-0.080969,0.000000,-0.000000,-0.000000,0.036259,-0.113353,0.143901,0.018105,-0.032489,0.448143
24.4052,-0.413294,-0.314678,-0.095966,-0.401956,0.014443,-0.370632,0.040047,-0.116353,0.144930,0.019089,-0.032776,0.448257
24.4635,-0.435131,-0.313642,-0.116403,-0.330657,0.037025,-0.335123,0.044956,-0.119914,0.146287,0.020321,-0.033037,0.448388
24.5234,-0.457815,-0.310211,-0.140394,-0.487520,0.112922,-0.559620,0.050115,-0.123207,0.147722,0.021547,-0.033124,0.448488
24.5811,-0.474889,-0.304024,-0.162373,-0.488890,0.221081,-0.676156,0.053891,-0.125155,0.148734,0.022354,-0.032929,0.448490
24.6412,-0.483893,-0.298302,-0.176526,-0.183461,0.191092,-0.365070,0.055749,-0.125841,0.149193,0.022690,-0.032656,0.448440
24.6975,-0.485078,-0.291299,-0.184720,-0.057213,0.338282,-0.395821,0.055562,-0.125134,0.148980,0.022505,-0.032197,0.448287
24.7543,-0.481869,-0.283126,-0.189896,-0.000000,0.000000,0.000000,0.054182,-0.123559,0.148361,0.022011,-0.031597,0.448068
24.8095,-0.474300,-0.273818,-0.191979,-0.000000,0.000000,0.000000,0.051639,-0.121083,0.147347,0.021221,-0.030848,0.447786
24.8642,-0.462442,-0.263410,-0.190941,-0.000000,0.000000,0.000000,0.048001,-0.117655,0.145969,0.020153,-0.029935,0.447449
24.9240,-0.446407,-0.251946,-0.186803,-0.000000,0.000000,0.000000,0.043371,-0.113214,0.144277,0.018834,-0.028844,0.447068
24.9943,-0.422076,-0.237077,-0.177841,0.426339,0.239472,0.179637,0.036767,-0.106526,0.141949,0.016987,-0.027293,0.446575
25.0463,-0.399398,-0.224926,-0.167656,0.955074,0.498022,0.443630,0.031002,-0.100238,0.139995,0.015393,-0.025899,0.446184
25.1017,-0.369467,-0.209793,-0.153252,1.068519,0.526080,0.529190,0.023886,-0.091699,0.137679,0.013421,-0.024034,0.445734
25.1555,-0.336328,-0.193862,-0.136448,1.172621,0.552122,0.606439,0.016658,-0.081922,0.135450,0.011405,-0.021922,0.445314
25.2094,-0.300273,-0.177195,-0.117508,1.266449,0.576041,0.674156,0.009576,-0.070917,0.133414,0.009401,-0.019557,0.444943
25.2711,-0.261617,-0.159855,-0.096731,1.349162,0.597739,0.731272,0.002904,-0.058736,0.131674,0.007471,-0.016946,0.444640
25.3329,-0.218609,-0.141156,-0.073207,2.077545,0.903324,1.136347,-0.003370,-0.044826,0.130271,0.005589,-0.013969,0.444412
25.3872,-0.195518,-0.131243,-0.060555,1.512896,0.649419,0.828976,-0.006235,-0.037225,0.129744,0.004693,-0.012338,0.444335
25.4408,-0.148355,-0.111145,-0.034836,2.278266,0.970897,1.242358,-0.010984,-0.021481,0.129149,0.003112,-0.008947,0.444272
25.4947,-0.123551,-0.100599,-0.021461,-0.000000,0.000000,0.000000,-0.012884,-0.013120,0.129090,0.002415,-0.007135,0.444288
25.5494,-0.043374,-0.066431,0.021036,3.047063,1.298519,1.615077,-0.016209,0.014102,0.130063,0.000795,-0.001180,0.444568
25.6091,0.004569,-0.045853,0.045825,-0.000000,0.000000,0.000000,-0.016148,0.030340,0.131473,0.000290,0.002418,0.444898
25.6680,0.052154,-0.025184,0.069638,-0.000000,0.000000,0.000000,-0.014593,0.046236,0.133457,0.000131,0.005982,0.445338
25.7309,0.098975,-0.004500,0.092116,-0.000000,0.000000,0.000000,-0.011642,0.061535,0.135950,0.000304,0.009463,0.445879
25.7833,0.130661,0.009911,0.106321,0.808296,0.375080,0.345306,-0.008870,0.071606,0.137914,0.000606,0.011797,0.446301
25.8435,0.175651,0.030909,0.125281,0.772695,0.370677,0.304150,-0.003893,0.085475,0.141074,0.001286,0.015068,0.446976
25.9029,0.232463,0.058581,0.146802,1.388408,0.693409,0.491297,0.004065,0.102144,0.145644,0.002566,0.019111,0.447954
25.9585,0.272067,0.078851,0.159878,1.297282,0.680045,0.397645,0.010663,0.113132,0.149181,0.003735,0.021862,0.448717
26.0225,0.308817,0.098689,0.170104,1.195498,0.664233,0.298367,0.017517,0.122814,0.152687,0.005024,0.024369,0.449483
26.0727,0.325856,0.108824,0.173204,1.116312,0.664023,0.203078,0.020920,0.127114,0.154345,0.005699,0.025543,0.449854
26.1287,0.356100,0.128325,0.176223,1.460982,0.942023,0.145845,0.027313,0.134479,0.157347,0.007022,0.027649,0.450542
26.1946,0.369724,0.138027,0.176143,-0.000000,0.000000,0.000000,0.030341,0.137697,0.158714,0.007679,0.028622,0.450866
26.2484,0.392713,0.156512,0.172836,-0.000000,0.000000,0.000000,0.035673,0.143022,0.161021,0.008895,0.030344,0.451440
26.3070,0.405024,0.168668,0.167841,0.264049,0.305627,-0.169536,0.038673,0.145889,0.162236,0.009634,0.031377,0.451769
26.3677,0.419032,0.185633,0.157835,0.183561,0.287551,-0.219087,0.042249,0.149250,0.163594,0.010587,0.032719,0.452178
26.4189,0.427494,0.198889,0.147735,-0.000000,0.000000,0.000000,0.044539,0.151427,0.164396,0.011262,0.033700,0.452459
26.4854,0.431144,0.214110,0.130960,0.044806,0.486803,-0.595700,0.045839,0.153032,0.164676,0.011820,0.034708,0.452673
26.5426,0.430116,0.227879,0.112328,-0.109212,0.447223,-0.664020,0.046064,0.153915,0.164513,0.012161,0.035550,0.452800
26.5936,0.427185,0.236397,0.099058,-0.137317,0.213917,-0.379844,0.045700,0.154178,0.164206,0.012282,0.036039,0.452844
26.6496,0.418226,0.246195,0.079823,-0.416064,0.375601,-0.787410,0.044094,0.153839,0.163373,0.012202,0.036532,0.452809
26.7070,0.403760,0.256622,0.056073,-0.558918,0.332192,-0.820207,0.041380,0.152913,0.162124,0.011920,0.036999,0.452708
26.7631,0.382770,0.265392,0.030606,-1.013964,0.423648,-1.230213,0.037380,0.151159,0.160467,0.011344,0.037292,0.452512
26.8186,0.357977,0.272825,0.004969,-1.197682,0.359042,-1.238459,0.032739,0.148854,0.158663,0.010593,0.037454,0.452270
26.8694,0.329623,0.278907,-0.020452,-1.369669,0.293806,-1.228019,0.027588,0.146008,0.156768,0.009689,0.037482,0.451991
26.9298,0.297982,0.283630,-0.045273,-1.528462,0.228152,-1.199011,0.022068,0.142639,0.154834,0.008657,0.037372,0.451684
26.9846,0.280083,0.285367,-0.057599,0.000000,-0.000000,-0.000000,0.019063,0.140677,0.153825,0.008068,0.037249,0.451512
27.0474,0.241858,0.287455,-0.080752,0.000000,-0.000000,-0.000000,0.012932,0.136390,0.151844,0.006819,0.036879,0.451152
27.0979,0.220931,0.287829,-0.091834,0.000000,-0.000000,-0.000000,0.009743,0.134004,0.150850,0.006146,0.036625,0.450960
27.1487,0.177459,0.287221,-0.111825,-2.099994,-0.029382,-0.965682,0.003489,0.128987,0.148962,0.004784,0.035999,0.450574
27.2066,0.154237,0.286214,-0.120947,0.000000,-0.000000,-0.000000,0.000349,0.126291,0.148044,0.004081,0.035618,0.450374
27.2623,0.107042,0.282894,-0.136483,0.000000,-0.000000,-0.000000,-0.005615,0.120802,0.146342,0.002711,0.034756,0.449981
27.3225,0.059259,0.278279,-0.149196,0.000000,-0.000000,-0.000000,-0.011112,0.115192,0.144795,0.001416,0.033784,0.449598
27.3767,0.011292,0.272400,-0.158923,0.000000,-0.000000,-0.000000,-0.016103,0.109559,0.143400,0.000214,0.032718,0.449228
27.4345,-0.022017,0.267208,-0.162994,-0.862906,-0.151531,-0.064674,-0.019276,0.105750,0.142534,-0.000557,0.031922,0.448978
27.4846,-0.070230,0.258503,-0.166050,-0.843259,-0.171921,-0.007499,-0.023470,0.100311,0.141391,-0.001577,0.030700,0.448625
27.5394,-0.117271,0.248662,-0.165904,-0.816680,-0.191516,0.049204,-0.027134,0.095094,0.140382,-0.002455,0.029433,0.448289
27.5979,-0.162753,0.237731,-0.162590,-0.783376,-0.210244,0.104574,-0.030304,0.090160,0.139500,-0.003188,0.028138,0.447972
27.6517,-0.199818,0.226958,-0.155946,-1.453197,-0.444099,0.305146,-0.032654,0.086320,0.138865,-0.003689,0.027007,0.447717
27.7023,-0.253762,0.210164,-0.144019,-0.691447,-0.242175,0.205132,-0.035674,0.080746,0.138012,-0.004265,0.025302,0.447358
27.7535,-0.292039,0.196419,-0.132045,-0.640146,-0.258061,0.251755,-0.037561,0.076888,0.137479,-0.004546,0.024015,0.447111
27.8041,-0.327385,0.181794,-0.117500,-0.583505,-0.272824,0.293913,-0.039127,0.073399,0.137050,-0.004694,0.022744,0.446888
27.8566,-0.359505,0.166353,-0.100641,-0.522009,-0.286409,0.330971,-0.040401,0.070266,0.136720,-0.004716,0.021494,0.446691
27.9172,-0.405904,0.140411,-0.070491,-0.438232,-0.288921,0.350988,-0.041961,0.065721,0.136358,-0.004531,0.019527,0.446426
27.9739,-0.425295,0.125978,-0.052616,-0.724907,-0.585952,0.734174,-0.042469,0.063718,0.136270,-0.004310,0.018519,0.446318
28.0337,-0.444597,0.108390,-0.030393,-0.587232,-0.604701,0.769957,-0.042833,0.061566,0.136238,-0.003960,0.017339,0.446215
28.0920,-0.455313,0.096498,-0.015238,-0.234064,-0.326787,0.417291,-0.042940,0.060240,0.136255,-0.003681,0.016564,0.446162
28.1571,-0.464503,0.080348,0.005268,-0.310671,-0.651303,0.824028,-0.042780,0.058656,0.136312,-0.003239,0.015535,0.446108
28.2182,-0.467097,0.069985,0.018112,0.000000,-0.000000,-0.000000,-0.042469,0.057708,0.136353,-0.002919,0.014876,0.446080
28.2734,-0.467464,0.059244,0.031011,0.000000,-0.000000,-0.000000,-0.041983,0.056726,0.136387,-0.002562,0.014185,0.446055
28.3315,-0.463752,0.037824,0.055656,0.000000,-0.000000,-0.000000,-0.040683,0.054693,0.136440,-0.001809,0.012775,0.446017
28.3937,-0.453433,0.012635,0.082757,0.221261,-0.379526,0.383974,-0.038702,0.052076,0.136471,-0.000888,0.011043,0.445995
28.4475,-0.443233,-0.004861,0.100459,0.000000,-0.000000,-0.000000,-0.037108,0.050082,0.136475,-0.000245,0.009787,0.445993
28.5039,-0.430900,-0.019597,0.113701,0.375476,-0.382104,0.315847,-0.035471,0.048117,0.136405,0.000307,0.008656,0.445987
28.5596,-0.409159,-0.040969,0.130958,0.443194,-0.375738,0.269619,-0.032848,0.044863,0.136237,0.001083,0.006914,0.445982
28.6209,-0.374029,-0.068966,0.149759,0.963017,-0.699388,0.417447,-0.029075,0.039722,0.135888,0.002017,0.004423,0.445979
28.6777,-0.343882,-0.089358,0.160552,1.075187,-0.682491,0.317058,-0.026198,0.035240,0.135549,0.002601,0.002444,0.445981
28.7406,-0.310573,-0.109216,0.168320,1.177598,-0.663256,0.212635,-0.023371,0.030138,0.135146,0.003059,0.000359,0.445983
28.7945,-0.290711,-0.119285,0.170022,1.301264,-0.659714,0.111533,-0.021851,0.026985,0.134857,0.003240,-0.000811,0.445970
28.8522,-0.248931,-0.138562,0.170216,2.018282,-0.931174,0.009356,-0.019065,0.020083,0.134245,0.003448,-0.003217,0.445941
28.9083,-0.205247,-0.157016,0.167241,2.110228,-0.891485,-0.143693,-0.016782,0.012517,0.133664,0.003439,-0.005694,0.445922
28.9657,-0.181872,-0.166102,0.164104,0.000000,-0.000000,-0.000000,-0.015830,0.008311,0.133374,0.003342,-0.006997,0.445912
29.0246,-0.134283,-0.183220,0.154898,0.000000,-0.000000,-0.000000,-0.014504,-0.000561,0.132859,0.002955,-0.009612,0.445900
29.0853,-0.077355,-0.202008,0.140294,0.865515,-0.268197,-0.260087,-0.014052,-0.011591,0.132449,0.002170,-0.012681,0.445912
29.1416,-0.028821,-0.216857,0.125286,0.863354,-0.248520,-0.301778,-0.014690,-0.021252,0.132319,0.001230,-0.015238,0.445954
29.2027,0.019519,-0.230595,0.107990,0.853984,-0.228120,-0.338395,-0.016292,-0.031044,0.132416,0.000052,-0.017714,0.446026
29.2578,0.060703,-0.241113,0.090583,1.635149,-0.405167,-0.719241,-0.018441,-0.039535,0.132684,-0.001136,-0.019748,0.446103
29.3171,0.108262,-0.252439,0.068640,1.587934,-0.363384,-0.765527,-0.021841,-0.049334,0.133256,-0.002715,-0.022007,0.446227
29.3744,0.154231,-0.262516,0.045517,1.527857,-0.320659,-0.799551,-0.026070,-0.058723,0.134097,-0.004444,-0.024082,0.446384
29.4310,0.198425,-0.270955,0.020642,2.134889,-0.407676,-1.201606,-0.031021,-0.067650,0.135189,-0.006284,-0.025949,0.446562
29.4835,0.240062,-0.278076,-0.004436,2.011342,-0.343967,-1.211457,-0.036466,-0.075832,0.136496,-0.008169,-0.027583,0.446762
29.5343,0.278817,-0.283863,-0.029330,1.872101,-0.279576,-1.202532,-0.042200,-0.083179,0.137966,-0.010045,-0.028980,0.446977
29.5937,0.336192,-0.291033,-0.068563,2.180502,-0.272481,-1.491020,-0.051815,-0.093418,0.140610,-0.013018,-0.030804,0.447348
29.6494,0.367079,-0.293977,-0.091101,1.492037,-0.142235,-1.088732,-0.057515,-0.098543,0.142265,-0.014700,-0.031643,0.447571
29.7094,0.381164,-0.294807,-0.102098,0.000000,-0.000000,-0.000000,-0.060223,-0.100763,0.143068,-0.015477,-0.031974,0.447671
29.7636,0.405291,-0.295120,-0.122338,0.000000,-0.000000,-0.000000,-0.064990,-0.104335,0.144501,-0.016806,-0.032438,0.447834
29.8326,0.428146,-0.293686,-0.143475,0.281634,0.041600,-0.285772,-0.069607,-0.107360,0.145901,-0.018044,-0.032724,0.447966
29.8978,0.439635,-0.290986,-0.156125,0.402180,0.125162,-0.473052,-0.071871,-0.108556,0.146559,-0.018610,-0.032715,0.447993
29.9563,0.452793,-0.284232,-0.174105,0.358478,0.239988,-0.542605,-0.074254,-0.109340,0.147170,-0.019137,-0.032430,0.447945
30.0223,0.455722,-0.278019,-0.182435,0.141495,0.300154,-0.402381,-0.074444,-0.108783,0.147078,-0.019090,-0.032020,0.447826
30.0751,0.454160,-0.270591,-0.187739,-0.075462,0.358799,-0.256237,-0.073548,-0.107399,0.146589,-0.018739,-0.031444,0.447642
30.1352,0.451050,-0.266143,-0.188878,-0.000000,0.000000,0.000000,-0.072532,-0.106245,0.146135,-0.018406,-0.031058,0.447514
30.1920,0.440498,-0.256166,-0.188014,-0.000000,0.000000,0.000000,-0.069499,-0.103071,0.144866,-0.017467,-0.030114,0.447203
30.2456,0.425693,-0.245108,-0.184041,-0.000000,0.000000,0.000000,-0.065559,-0.098961,0.143285,-0.016280,-0.028978,0.446848
30.3036,0.395198,-0.225606,-0.172732,-0.000000,0.000000,0.000000,-0.058052,-0.090647,0.140398,-0.014048,-0.026789,0.446237
30.3629,0.368410,-0.210524,-0.160821,-0.461723,0.242539,0.222103,-0.052023,-0.083307,0.138188,-0.012264,-0.024929,0.445795
30.4216,0.341888,-0.196759,-0.147904,-0.523728,0.258405,0.267774,-0.046529,-0.075931,0.136262,-0.010635,-0.023102,0.445424
30.4730,0.300904,-0.176925,-0.126597,-1.103305,0.518981,0.587165,-0.038933,-0.064263,0.133761,-0.008357,-0.020262,0.444964
30.5243,0.259076,-0.157356,-0.104249,-0.612147,0.277322,0.334616,-0.032264,-0.051925,0.131760,-0.006303,-0.017277,0.444613
30.5816,0.224269,-0.141670,-0.085165,-0.658732,0.290192,0.365810,-0.027572,-0.041420,0.130518,-0.004807,-0.014750,0.444409
30.6318,0.190967,-0.127177,-0.066591,-1.361840,0.588298,0.761519,-0.023825,-0.031251,0.129685,-0.003556,-0.012315,0.444288
30.6889,0.149816,-0.109522,-0.043584,-1.423469,0.606916,0.795768,-0.020186,-0.018512,0.129117,-0.002246,-0.009260,0.444230
30.7425,0.121766,-0.097587,-0.027932,-0.774683,0.327887,0.430114,-0.018336,-0.009752,0.129017,-0.001503,-0.007154,0.444247
30.7945,0.083441,-0.081385,-0.006822,-1.546619,0.653333,0.847685,-0.016639,0.002204,0.129246,-0.000684,-0.004265,0.444341
30.8575,0.015162,-0.052485,0.030116,-2.232665,0.945936,1.200275,-0.015959,0.023445,0.130671,0.000219,0.000916,0.444705
30.9079,-0.031198,-0.032689,0.054395,-2.239524,0.956260,1.172823,-0.017184,0.037636,0.132351,0.000429,0.004427,0.445089
30.9590,-0.077289,-0.012758,0.077727,-2.226485,0.962793,1.127128,-0.019721,0.051432,0.134566,0.000319,0.007889,0.445578
31.0175,-0.128198,0.009437,0.103001,-1.484311,0.653711,0.718729,-0.024014,0.066243,0.137641,-0.000169,0.011655,0.446243
31.0786,-0.172218,0.029278,0.123191,-0.000000,0.000000,0.000000,-0.028925,0.078466,0.140761,-0.000895,0.014847,0.446909
31.1370,-0.214779,0.049023,0.141422,-0.000000,0.000000,0.000000,-0.034685,0.089731,0.144169,-0.001861,0.017861,0.447636
31.1970,-0.255499,0.068594,0.157409,-0.000000,0.000000,0.000000,-0.041080,0.099935,0.147763,-0.003025,0.020672,0.448403
31.2569,-0.282004,0.082058,0.166370,-0.659639,0.347810,0.198713,-0.045678,0.106228,0.150239,-0.003912,0.022473,0.448936
31.3102,-0.312413,0.098092,0.175530,-0.000000,0.000000,0.000000,-0.051362,0.113112,0.153219,-0.005053,0.024501,0.449582
31.3634,-0.330027,0.107954,0.179795,-0.000000,0.000000,0.000000,-0.054844,0.116922,0.154991,-0.005779,0.025670,0.449972
31.4267,-0.351635,0.121206,0.183058,-0.518513,0.338614,0.044408,-0.059300,0.121417,0.157176,-0.006747,0.027125,0.450464
31.4826,-0.374955,0.137362,0.183599,-0.882384,0.636979,-0.019811,-0.064343,0.126078,0.159538,-0.007902,0.028747,0.451017
31.5425,-0.398908,0.155759,0.181399,-0.744733,0.610043,-0.125636,-0.069783,0.130683,0.161997,-0.009210,0.030457,0.451617
31.6099,-0.427295,0.181618,0.172844,-0.858154,0.828851,-0.326677,-0.076610,0.135986,0.164921,-0.010973,0.032634,0.452387
31.6767,-0.434230,0.190017,0.167832,-0.000000,0.000000,0.000000,-0.078378,0.137335,0.165610,-0.011481,0.033272,0.452596
31.7333,-0.439966,0.200839,0.158467,-0.090692,0.269377,-0.278444,-0.079975,0.138675,0.166129,-0.012021,0.034027,0.452802
31.7851,-0.444246,0.215754,0.142440,-0.009895,0.249634,-0.319106,-0.081402,0.140124,0.166458,-0.012632,0.034999,0.453023
31.8443,-0.444335,0.238053,0.113318,0.070739,0.220587,-0.343776,-0.082181,0.141678,0.166330,-0.013300,0.036353,0.453260
31.8973,-0.439575,0.250221,0.093725,0.149832,0.199953,-0.374457,-0.081579,0.142113,0.165814,-0.013466,0.037030,0.453317
31.9590,-0.426083,0.264622,0.064890,0.431439,0.339544,-0.758190,-0.079237,0.142006,0.164533,-0.013334,0.037744,0.453268
32.0174,-0.403594,0.279983,0.028653,0.558593,0.286480,-0.766552,-0.075139,0.141206,0.162588,-0.012846,0.038415,0.453116
32.0743,-0.385012,0.287807,0.005667,0.695444,0.244873,-0.789639,-0.071711,0.140221,0.161116,-0.012305,0.038679,0.452950
32.1291,-0.350731,0.297279,-0.029203,1.176877,0.288834,-1.140351,-0.065493,0.138033,0.158634,-0.011186,0.038857,0.452616
32.1849,-0.321782,0.303272,-0.055404,0.918141,0.152563,-0.768552,-0.060411,0.135933,0.156712,-0.010203,0.038863,0.452337
32.2494,-0.278220,0.308683,-0.088611,1.471723,0.156224,-1.074585,-0.053115,0.132475,0.154110,-0.008688,0.038630,0.451912
32.3296,-0.244702,0.310637,-0.110024,0.000000,-0.000000,-0.000000,-0.047814,0.129661,0.152322,-0.007522,0.038299,0.451589
32.3897,-0.205502,0.310676,-0.130403,1.340884,-0.020148,-0.650596,-0.041986,0.126342,0.150462,-0.006182,0.037775,0.451219
32.4523,-0.164907,0.309420,-0.148629,1.406668,-0.063462,-0.586135,-0.036336,0.122803,0.148719,-0.004842,0.037128,0.450848
32.5056,-0.120690,0.306227,-0.164211,2.135964,-0.154246,-0.752732,-0.030633,0.118983,0.147040,-0.003448,0.036309,0.450456
32.5654,-0.047599,0.299059,-0.185356,2.777772,-0.272388,-0.803588,-0.022135,0.112457,0.144578,-0.001322,0.034766,0.449839
32.6201,-0.003151,0.293538,-0.195327,2.147140,-0.266706,-0.481675,-0.017516,0.108433,0.143252,-0.000148,0.033727,0.449479
32.6847,0.041668,0.286803,-0.202466,0.000000,-0.000000,-0.000000,-0.013256,0.104444,0.142043,0.000940,0.032605,0.449126
32.7502,0.072928,0.281053,-0.204851,0.811481,-0.165516,-0.022394,-0.010502,0.101802,0.141283,0.001637,0.031777,0.448884
32.8113,0.118284,0.271572,-0.205559,0.794719,-0.185122,0.032409,-0.006797,0.098080,0.140269,0.002557,0.030518,0.448539
32.8683,0.156363,0.261994,-0.202399,1.505561,-0.397086,0.166728,-0.003917,0.095164,0.139506,0.003238,0.029396,0.448252
32.9221,0.199891,0.249754,-0.195933,1.444870,-0.430807,0.267822,-0.000868,0.091937,0.138701,0.003909,0.028053,0.447928
32.9729,0.227719,0.241174,-0.190192,0.721979,-0.243610,0.192113,0.000955,0.089927,0.138222,0.004275,0.027161,0.447724
33.0282,0.261645,0.228827,-0.179419,1.324032,-0.505655,0.466647,0.003079,0.087638,0.137691,0.004641,0.025999,0.447472
33.0867,0.299243,0.213475,-0.164355,1.225982,-0.533286,0.550916,0.005290,0.085167,0.137155,0.004940,0.024637,0.447197
33.1493,0.333790,0.197338,-0.146928,1.117821,-0.558924,0.626946,0.007194,0.082944,0.136717,0.005099,0.023295,0.446947
33.2094,0.349523,0.188217,-0.136083,1.030756,-0.597608,0.710503,0.008023,0.081947,0.136541,0.005111,0.022598,0.446828
33.2640,0.363740,0.178535,-0.124104,0.000000,-0.000000,-0.000000,0.008739,0.081017,0.136396,0.005076,0.021892,0.446714
33.3156,0.387976,0.158788,-0.099045,1.170776,-0.953947,1.210528,0.009853,0.079297,0.136184,0.004897,0.020507,0.446514
33.3832,0.407988,0.138624,-0.073119,0.000000,-0.000000,-0.000000,0.010625,0.077652,0.136058,0.004603,0.019142,0.446348
33.4405,0.418153,0.124215,-0.054601,0.207191,-0.380522,0.485849,0.010863,0.076512,0.136010,0.004321,0.018191,0.446250
33.5030,0.431366,0.095546,-0.018273,0.239914,-0.728954,0.912719,0.010764,0.074190,0.135992,0.003638,0.016320,0.446100
33.5610,0.436092,0.073969,0.008322,0.085447,-0.732503,0.889478,0.010242,0.072316,0.136025,0.003044,0.014907,0.446022
33.6185,0.436266,0.052324,0.034038,-0.068445,-0.733602,0.853671,0.009320,0.070248,0.136075,0.002396,0.013468,0.445969
33.6768,0.431925,0.030685,0.058513,-0.220470,-0.732220,0.805780,0.008003,0.067914,0.136121,0.001711,0.011988,0.445937
33.7356,0.420843,0.008593,0.081199,-0.535334,-1.067145,1.095867,0.006071,0.065002,0.136095,0.000974,0.010388,0.445911
33.7872,0.405505,-0.013276,0.101786,-0.740933,-1.056449,0.994505,0.003809,0.061643,0.136021,0.000250,0.008717,0.445899
33.8415,0.386076,-0.034852,0.119996,-0.938544,-1.042277,0.879676,0.001272,0.057763,0.135887,-0.000439,0.006965,0.445895
33.9035,0.362756,-0.056064,0.135586,0.000000,-0.000000,-0.000000,-0.001465,0.053293,0.135682,-0.001067,0.005122,0.445896
33.9536,0.335779,-0.076839,0.148349,0.000000,-0.000000,-0.000000,-0.004311,0.048171,0.135406,-0.001609,0.003183,0.445900
34.0188,0.286790,-0.109534,0.164116,-1.861786,-1.242537,0.599198,-0.008732,0.038712,0.134896,-0.002243,-0.000115,0.445928
34.0799,0.263584,-0.122725,0.167985,-0.644330,-0.337080,0.059632,-0.010504,0.034119,0.134625,-0.002399,-0.001576,0.445936
34.1345,0.227001,-0.141511,0.170762,-0.687922,-0.324627,0.002740,-0.012882,0.026705,0.134190,-0.002486,-0.003796,0.445947
34.1978,0.192364,-0.156954,0.169259,-1.412995,-0.607704,-0.101881,-0.014668,0.019436,0.133754,-0.002402,-0.005804,0.445944
34.2530,0.164480,-0.168669,0.166718,-0.772968,-0.304687,-0.108744,-0.015759,0.013453,0.133442,-0.002230,-0.007396,0.445948
34.3044,0.126123,-0.183065,0.159877,-1.550830,-0.563884,-0.312839,-0.016754,0.004960,0.133031,-0.001843,-0.009520,0.445945
34.3605,0.095702,-0.193899,0.153270,-0.830195,-0.279202,-0.214477,-0.017102,-0.001902,0.132778,-0.001422,-0.011179,0.445954
34.4260,0.079928,-0.199204,0.149195,0.000000,-0.000000,-0.000000,-0.017127,-0.005515,0.132668,-0.001163,-0.012025,0.445959
34.4837,0.053659,-0.206851,0.139838,-1.721072,-0.501007,-0.613072,-0.016934,-0.011737,0.132476,-0.000673,-0.013394,0.445952
34.5449,0.027019,-0.214089,0.129199,0.000000,-0.000000,-0.000000,-0.016418,-0.018143,0.132343,-0.000103,-0.014758,0.445949
34.6042,-0.024782,-0.227221,0.106412,0.000000,-0.000000,-0.000000,-0.014464,-0.030727,0.132312,0.001211,-0.017341,0.445973
34.6616,-0.074992,-0.239054,0.082345,0.000000,-0.000000,-0.000000,-0.011356,-0.042940,0.132612,0.002738,-0.019750,0.446041
34.7145,-0.123241,-0.249564,0.057356,-2.330748,-0.507679,-1.207145,-0.007231,-0.054590,0.133229,0.004432,-0.021955,0.446152
34.7702,-0.131428,-0.251197,0.052803,0.000000,-0.000000,-0.000000,-0.006420,-0.056560,0.133365,0.004741,-0.022315,0.446174
34.8206,-0.154895,-0.255451,0.038907,0.000000,-0.000000,-0.000000,-0.003910,-0.062200,0.133808,0.005658,-0.023315,0.446238
34.8788,-0.198427,-0.262508,0.011582,0.000000,-0.000000,-0.000000,0.001446,-0.072482,0.134859,0.007481,-0.025065,0.446382
34.9327,-0.238507,-0.268151,-0.015036,0.000000,-0.000000,-0.000000,0.007159,-0.081649,0.136104,0.009293,-0.026546,0.446547
34.9846,-0.257307,-0.270337,-0.028239,-1.231679,-0.143198,-0.865018,0.010089,-0.085823,0.136778,0.010181,-0.027184,0.446631
35.0525,-0.268741,-0.271154,-0.036962,-0.547969,-0.029520,-0.430232,0.011941,-0.088292,0.137206,0.010726,-0.027531,0.446678
35.1135,-0.293169,-0.271868,-0.056825,-0.918323,-0.010017,-0.765772,0.016053,-0.093355,0.138168,0.011898,-0.028176,0.446768
35.1848,-0.317887,-0.271445,-0.078148,-0.761322,0.037066,-0.681421,0.020418,-0.098169,0.139215,0.013094,-0.028709,0.446855
35.2404,-0.327379,-0.270157,-0.087420,-0.621838,0.084406,-0.607491,0.022098,-0.099802,0.139599,0.013532,-0.028819,0.446868
35.3070,-0.329881,-0.269462,-0.090177,0.000000,-0.000000,-0.000000,0.022524,-0.100168,0.139686,0.013639,-0.028819,0.446865
35.3655,-0.334960,-0.266678,-0.096917,0.000000,-0.000000,-0.000000,0.023305,-0.100654,0.139796,0.013814,-0.028708,0.446827
35.4167,-0.337747,-0.261708,-0.103387,-0.009295,0.145975,-0.124882,0.023498,-0.100266,0.139681,0.013808,-0.028366,0.446730
35.4748,-0.337424,-0.253312,-0.109788,0.075233,0.166677,-0.064330,0.022848,-0.098592,0.139234,0.013541,-0.027671,0.446545
35.5306,-0.331372,-0.244603,-0.111189,0.302844,0.363057,-0.011746,0.021087,-0.095659,0.138489,0.012982,-0.026807,0.446331
35.5917,-0.320140,-0.233340,-0.109840,0.452879,0.398688,0.099361,0.018236,-0.091095,0.137398,0.012111,-0.025590,0.446051
35.6566,-0.284554,-0.202012,-0.102033,1.116845,0.983204,0.245033,0.010136,-0.077081,0.134517,0.009653,-0.021983,0.445350
35.7102,-0.243942,-0.166260,-0.093123,1.460128,1.285410,0.320349,0.002117,-0.060458,0.131917,0.007176,-0.017688,0.444727
35.7664,-0.190553,-0.119259,-0.081409,1.131753,0.996328,0.248304,-0.006357,-0.037758,0.129619,0.004473,-0.011802,0.444197
35.8186,-0.155524,-0.088421,-0.073724,0.742543,0.653691,0.162912,-0.010601,-0.022455,0.128807,0.003052,-0.007821,0.444029
35.8830,-0.128157,-0.064329,-0.067720,0.438464,0.385998,0.096198,-0.013177,-0.010331,0.128557,0.002139,-0.004660,0.443997
35.9494,-0.114586,-0.052382,-0.064742,0.287676,0.253253,0.063116,-0.014211,-0.004276,0.128557,0.001752,-0.003079,0.444013
36.0026,-0.107569,-0.046205,-0.063203,0.209716,0.184622,0.046011,-0.014683,-0.001137,0.128590,0.001569,-0.002259,0.444030
36.0701,-0.099840,-0.039401,-0.061507,0.123835,0.109017,0.027169,-0.015151,0.002327,0.128652,0.001380,-0.001354,0.444055
36.1288,-0.096007,-0.036027,-0.060666,0.081248,0.071526,0.017826,-0.015364,0.004047,0.128693,0.001292,-0.000904,0.444069
36.1969,-0.093013,-0.033391,-0.060009,0.047976,0.042235,0.010526,-0.015521,0.005392,0.128729,0.001226,-0.000552,0.444082
36.2552,-0.091843,-0.032360,-0.059752,0.034975,0.030790,0.007673,-0.015581,0.005918,0.128744,0.001200,-0.000415,0.444088
36.3171,-0.090760,-0.031407,-0.059515,0.022947,0.020201,0.005035,-0.015635,0.006404,0.128759,0.001177,-0.000288,0.444093
36.3724,-0.090050,-0.030782,-0.059359,0.015055,0.013254,0.003303,-0.015669,0.006723,0.128769,0.001162,-0.000204,0.444096
36.4383,-0.089584,-0.030372,-0.059257,0.009878,0.008696,0.002167,-0.015692,0.006933,0.128776,0.001152,-0.000149,0.444098
36.4887,-0.089343,-0.030160,-0.059204,0.007201,0.006339,0.001580,-0.015703,0.007041,0.128779,0.001147,-0.000121,0.444100
36.5390,-0.089167,-0.030005,-0.059166,0.005250,0.004621,0.001152,-0.015712,0.007120,0.128782,0.001143,-0.000100,0.444100
36.6014,-0.089005,-0.029862,-0.059130,0.003444,0.003032,0.000756,-0.015720,0.007193,0.128784,0.001140,-0.000081,0.444101
36.6584,-0.088898,-0.029768,-0.059107,0.002260,0.001989,0.000496,-0.015725,0.007241,0.128786,0.001138,-0.000069,0.444102
36.7237,-0.088828,-0.029707,-0.059091,0.001483,0.001305,0.000325,-0.015728,0.007272,0.128787,0.001136,-0.000060,0.444102
36.7850,-0.088774,-0.029659,-0.059079,0.000875,0.000771,0.000192,-0.015731,0.007297,0.128787,0.001135,-0.000054,0.444102
36.8536,-0.088742,-0.029630,-0.059072,0.000517,0.000455,0.000113,-0.015732,0.007311,0.128788,0.001134,-0.000050,0.444102
36.9146,-0.088726,-0.029616,-0.059069,0.000339,0.000299,0.000074,-0.015733,0.007319,0.128788,0.001134,-0.000048,0.444103
36.9775,-0.088715,-0.029607,-0.059066,0.000223,0.000196,0.000049,-0.015733,0.007323,0.128788,0.001134,-0.000047,0.444103
37.0343,-0.088708,-0.029601,-0.059065,0.000146,0.000129,0.000032,-0.015734,0.007326,0.128788,0.001134,-0.000046,0.444103
37.0897,-0.088704,-0.029597,-0.059064,0.000096,0.000084,0.000021,-0.015734,0.007328,0.128788,0.001134,-0.000046,0.444103
37.1446,-0.088701,-0.029595,-0.059063,0.000070,0.000061,0.000015,-0.015734,0.007330,0.128788,0.001134,-0.000045,0.444103
37.2016,-0.088699,-0.029593,-0.059063,0.000046,0.000040,0.000010,-0.015734,0.007330,0.128788,0.001134,-0.000045,0.444103
37.2604,-0.088698,-0.029592,-0.059062,0.000030,0.000026,0.000007,-0.015734,0.007331,0.128788,0.001133,-0.000045,0.444103
37.3296,-0.088697,-0.029591,-0.059062,0.000018,0.000016,0.000004,-0.015734,0.007332,0.128789,0.001133,-0.000045,0.444103
37.3835,-0.088696,-0.029590,-0.059062,0.000012,0.000010,0.000003,-0.015734,0.007332,0.128789,0.001133,-0.000045,0.444103
37.4401,-0.088696,-0.029590,-0.059062,0.000008,0.000007,0.000002,-0.015734,0.007332,0.128789,0.001133,-0.000045,0.444103
37.4938,-0.088695,-0.029590,-0.059062,0.000005,0.000004,0.000001,-0.015734,0.007332,0.128789,0.001133,-0.000045,0.444103
37.5476,-0.088695,-0.029590,-0.059062,0.000003,0.000003,0.000001,-0.015734,0.007332,0.128789,0.001133,-0.000045,0.444103
37.6028,-0.088695,-0.029590,-0.059062,0.000002,0.000002,0.000000,-0.015734,0.007332,0.128789,0.001133,-0.000045,0.444103
37.6624,-0.016123,-0.003756,-0.013085,3.505719,1.247921,2.221011,-0.016608,0.031981,0.130653,0.000345,0.005107,0.444644
37.7406,0.023235,0.010448,0.011558,-0.000000,0.000000,0.000000,-0.015620,0.045297,0.132287,0.000232,0.007915,0.445052
37.7967,0.080561,0.031478,0.046899,1.531630,0.567119,0.935479,-0.012364,0.064427,0.135436,0.000463,0.011988,0.445789
37.8530,0.166814,0.063491,0.099448,1.564415,0.586838,0.942391,-0.003508,0.092155,0.141873,0.001678,0.017956,0.447214
37.9107,0.243836,0.092618,0.145428,3.098875,1.177853,1.839368,0.008216,0.115294,0.149291,0.003611,0.023017,0.448798
37.9607,0.335718,0.127796,0.199507,3.124009,1.204041,1.824216,0.026520,0.140191,0.160135,0.006894,0.028560,0.451064
38.0207,0.428100,0.163676,0.252948,3.133245,1.225625,1.796656,0.049100,0.161541,0.173126,0.011163,0.033435,0.453737
38.0857,0.565111,0.217849,0.330450,4.459727,1.772433,2.505927,0.088764,0.185070,0.195992,0.018992,0.039074,0.458393
38.1364,0.656782,0.254911,0.380802,4.428319,1.790350,2.432330,0.118257,0.194716,0.213482,0.025012,0.041631,0.461939
38.1871,0.747352,0.292214,0.429291,4.375154,1.801975,2.342345,0.148743,0.199117,0.232321,0.031387,0.043110,0.465756
38.2436,0.836381,0.329629,0.475591,4.300679,1.807414,2.236605,0.179184,0.198363,0.252198,0.037905,0.043503,0.469792
38.3098,0.923438,0.367031,0.519391,4.205417,1.806776,2.115834,0.208628,0.192784,0.272791,0.044367,0.042856,0.473992
38.3639,0.967205,0.386295,0.540588,-0.000000,0.000000,0.000000,0.223083,0.188216,0.283513,0.047608,0.042150,0.476192
38.4277,1.051372,0.424314,0.579635,-0.000000,0.000000,0.000000,0.249832,0.176257,0.304737,0.053748,0.040089,0.480580
38.4809,1.107315,0.450527,0.603952,1.414720,0.678442,0.588364,0.266633,0.166118,0.319214,0.057724,0.038225,0.483608
38.5351,1.185941,0.488461,0.636268,1.340732,0.665776,0.519207,0.288576,0.149126,0.340012,0.063084,0.034952,0.488007
38.5896,1.260358,0.525666,0.664672,1.260977,0.651273,0.446837,0.307245,0.130358,0.360107,0.067843,0.031188,0.492323
38.6398,1.330247,0.562040,0.688988,1.175795,0.634985,0.371702,0.322687,0.110636,0.379262,0.071983,0.027104,0.496511
38.6906,1.363761,0.580446,0.699094,1.117412,0.634175,0.304338,0.329363,0.100550,0.388494,0.073868,0.024974,0.498573
38.7467,1.453702,0.631491,0.723590,-0.000000,0.000000,0.000000,0.344633,0.071716,0.413507,0.078457,0.018721,0.504263
38.8016,1.491289,0.654518,0.731190,0.910132,0.586757,0.139306,0.349934,0.059022,0.423996,0.080216,0.015898,0.506733
38.8616,1.541306,0.687201,0.738188,0.805986,0.563304,0.057600,0.356027,0.041639,0.437974,0.082422,0.011961,0.510127
38.9143,1.585446,0.718553,0.740599,0.698450,0.538402,-0.024425,0.360543,0.025891,0.450327,0.084262,0.008317,0.513251
38.9671,1.623524,0.748495,0.738411,0.587961,0.512118,-0.106266,0.363899,0.012032,0.460997,0.085817,0.005044,0.516088
39.0345,1.664403,0.786154,0.728077,0.902436,0.920590,-0.356096,0.367235,-0.003132,0.472482,0.087585,0.001378,0.519396
39.0875,1.687713,0.812500,0.715243,0.683851,0.865797,-0.508034,0.369273,-0.011946,0.479077,0.088760,-0.000805,0.521511
39.1447,1.704522,0.837193,0.697973,0.462253,0.808783,-0.656785,0.371195,-0.018437,0.483900,0.089871,-0.002452,0.523301
39.2042,1.714756,0.860172,0.676372,0.238534,0.749693,-0.801436,0.373170,-0.022537,0.486945,0.090960,-0.003531,0.524756
39.2602,1.718366,0.881376,0.650577,0.013593,0.688673,-0.941097,0.375289,-0.024189,0.488213,0.092052,-0.004014,0.525870
39.3193,1.708302,0.912073,0.598169,-0.382447,1.166611,-1.991750,0.379168,-0.020856,0.486032,0.093892,-0.003303,0.526867
39.3740,1.701759,0.920573,0.580032,-0.428723,0.556898,-1.188283,0.380388,-0.018496,0.484455,0.094457,-0.002746,0.526993
39.4414,1.691625,0.928302,0.559564,0.000000,-0.000000,-0.000000,0.381642,-0.014746,0.481943,0.095032,-0.001839,0.526937
39.5044,1.671832,0.937283,0.528291,-0.601716,0.207799,-0.856635,0.383245,-0.007293,0.476985,0.095793,-0.000007,0.526545
39.5648,1.636966,0.948565,0.479771,-0.712695,0.170274,-0.902941,0.384947,0.006007,0.468239,0.096760,0.003299,0.525648
39.6214,1.599052,0.955773,0.434526,-1.596832,0.260279,-1.840275,0.385394,0.020593,0.458766,0.097360,0.006963,0.524447
39.6773,1.548878,0.962343,0.379194,-1.795101,0.187224,-1.905547,0.384289,0.039905,0.446307,0.097698,0.011861,0.522727
39.7392,1.492946,0.966750,0.322096,-1.986983,0.113804,-1.960192,0.380955,0.061242,0.432563,0.097527,0.017331,0.520692
39.7928,1.427235,0.968027,0.261362,-3.174307,0.061707,-2.933833,0.374369,0.085763,0.416705,0.096613,0.023694,0.518157
39.8504,1.356393,0.967125,0.199764,-3.422096,-0.043614,-2.975598,0.364394,0.111214,0.399945,0.094904,0.030401,0.515360
39.9042,1.317251,0.965533,0.167649,0.000000,-0.000000,-0.000000,0.357686,0.124716,0.390872,0.093649,0.034006,0.513789
39.9574,1.184376,0.956934,0.064430,-5.049833,-0.326790,-3.922772,0.329295,0.166828,0.361037,0.087947,0.045545,0.508441
40.0148,1.100632,0.949636,0.002897,0.000000,-0.000000,-0.000000,0.307529,0.189868,0.343056,0.083337,0.052132,0.505100
40.0775,0.996521,0.938135,-0.068895,-1.631396,-0.206069,-1.073618,0.277158,0.214152,0.321755,0.076659,0.059415,0.500992
40.1395,0.904398,0.926202,-0.128916,-1.691610,-0.243367,-1.052745,0.247955,0.231273,0.303908,0.070033,0.064929,0.497428
40.2005,0.820311,0.913264,-0.179495,-3.403371,-0.544711,-2.003269,0.220053,0.243193,0.288551,0.063512,0.069126,0.494231
40.2530,0.718529,0.896145,-0.237645,-3.488071,-0.612553,-1.937850,0.185406,0.252756,0.271064,0.055205,0.073104,0.490471
40.3137,0.563663,0.867358,-0.320255,-5.077743,-0.968539,-2.655395,0.132763,0.257169,0.246807,0.042116,0.076781,0.485013
40.3777,0.391306,0.831922,-0.404804,-6.550279,-1.346732,-3.213234,0.077461,0.248495,0.223169,0.027650,0.077540,0.479353
40.4290,0.337275,0.819989,-0.429499,0.000000,-0.000000,-0.000000,0.061402,0.243116,0.216496,0.023272,0.077084,0.477671
40.4874,0.228769,0.794418,-0.475547,0.000000,-0.000000,-0.000000,0.031613,0.229022,0.204156,0.014862,0.075234,0.474414
40.5485,0.119691,0.767081,-0.518243,0.000000,-0.000000,-0.000000,0.005480,0.210939,0.193114,0.007079,0.072220,0.471320
40.6018,0.010452,0.738038,-0.557346,0.000000,-0.000000,-0.000000,-0.016342,0.189688,0.183377,0.000125,0.068184,0.468403
40.6551,-0.065721,0.716278,-0.581337,-1.983466,-0.589808,-0.574693,-0.028790,0.173552,0.177334,-0.004150,0.064845,0.466457
40.7167,-0.176772,0.682931,-0.612822,-1.961286,-0.615733,-0.499210,-0.042696,0.148649,0.169561,-0.009445,0.059354,0.463769
40.7768,-0.323215,0.635975,-0.648049,-3.670781,-1.216697,-0.800160,-0.053206,0.114675,0.161077,-0.014584,0.051284,0.460492
40.8355,-0.495060,0.577991,-0.683411,-3.475512,-1.219093,-0.620243,-0.054287,0.075423,0.153596,-0.017796,0.041242,0.457091
40.8903,-0.596533,0.541326,-0.699374,-3.400405,-1.263006,-0.466219,-0.049593,0.053857,0.150297,-0.018233,0.035309,0.455275
40.9441,-0.695585,0.503408,-0.710753,-3.312008,-1.304017,-0.309852,-0.041557,0.034652,0.147787,-0.017625,0.029700,0.453630
40.9978,-0.791830,0.464325,-0.717494,-3.210663,-1.342039,-0.152076,-0.030821,0.018177,0.145956,-0.016080,0.024560,0.452148
41.0551,-0.884890,0.424166,-0.719569,-3.096762,-1.376994,0.006164,-0.018044,0.004637,0.144696,-0.013727,0.020001,0.450825
41.1080,-0.974403,0.383023,-0.716979,-2.970748,-1.408808,0.163919,-0.003872,-0.005913,0.143904,-0.010704,0.016102,0.449653
41.1661,-1.100426,0.320487,-0.705185,-4.040914,-2.050210,0.456765,0.018566,-0.016284,0.143428,-0.005283,0.011612,0.448188
41.2234,-1.179687,0.277297,-0.691184,-3.828794,-2.086357,0.676345,0.033767,-0.019951,0.143414,-0.001205,0.009477,0.447371
41.2773,-1.254246,0.233457,-0.672735,-3.601694,-2.117773,0.891220,0.048595,-0.021318,0.143584,0.003072,0.008026,0.446689
41.3305,-1.323812,0.189066,-0.649962,-3.360503,-2.144392,1.100094,0.062733,-0.020739,0.143882,0.007442,0.007207,0.446141
41.3893,-1.388113,0.144224,-0.623015,-3.106167,-2.166162,1.301707,0.075951,-0.018591,0.144262,0.011812,0.006951,0.445725
41.4404,-1.418501,0.120863,-0.607018,0.000000,-0.000000,-0.000000,0.082243,-0.017035,0.144439,0.014031,0.007005,0.445555
41.4927,-1.506622,0.045594,-0.549624,-3.348962,-2.860523,2.181227,0.100562,-0.010530,0.145120,0.020957,0.007892,0.445255
41.5505,-1.530767,0.022262,-0.530039,0.000000,-0.000000,-0.000000,0.105617,-0.008222,0.145354,0.023018,0.008341,0.445236
41.6106,-1.572626,-0.024163,-0.487768,0.000000,-0.000000,-0.000000,0.114574,-0.003669,0.145763,0.026950,0.009361,0.445292
41.6670,-1.613311,-0.078704,-0.433899,-0.517459,-0.822016,0.856606,0.123663,0.001476,0.146267,0.031335,0.010700,0.445530
41.7321,-1.648767,-0.140279,-0.368299,-0.760058,-1.551506,1.710685,0.132334,0.006628,0.146930,0.036010,0.012241,0.446029
41.7872,-1.676038,-0.198304,-0.303860,-0.267393,-0.781299,0.907577,0.139567,0.011086,0.147843,0.040228,0.013733,0.446748
41.8438,-1.685629,-0.236206,-0.258594,-0.295527,-1.510677,1.835935,0.143371,0.012912,0.148429,0.042839,0.014459,0.447327
41.8965,-1.690873,-0.280510,-0.203613,-0.067389,-1.490933,1.886524,0.147211,0.014177,0.149221,0.045793,0.015081,0.448127
41.9571,-1.689379,-0.324180,-0.147318,0.160887,-1.467899,1.925366,0.150384,0.014375,0.150136,0.048611,0.015382,0.449048
42.0123,-1.681156,-0.367121,-0.090060,0.388409,-1.441625,1.952228,0.152931,0.013449,0.151192,0.051299,0.015307,0.450084
42.0630,-1.672383,-0.395115,-0.051862,0.323307,-0.743247,1.035237,0.154307,0.012263,0.151984,0.053007,0.015046,0.450832
42.1212,-1.653201,-0.430878,-0.001319,0.854274,-1.417864,2.022755,0.155510,0.009417,0.153065,0.055121,0.014219,0.451863
42.1774,-1.620827,-0.472762,0.059648,1.563852,-2.023257,2.945122,0.156204,0.004436,0.154508,0.057486,0.012571,0.453189
42.2335,-1.558441,-0.538283,0.156665,2.370946,-2.490102,3.687050,0.156051,-0.005291,0.157338,0.060878,0.008980,0.455536
42.2861,-1.514938,-0.576166,0.213577,2.101479,-1.829982,2.749210,0.155120,-0.012058,0.159309,0.062599,0.006255,0.457046
42.3456,-1.465376,-0.612710,0.269099,2.394154,-1.765315,2.682070,0.153418,-0.019679,0.161447,0.064009,0.003007,0.458606
42.3978,-1.409956,-0.647838,0.322892,2.677164,-1.696889,2.598592,0.150892,-0.028039,0.163733,0.065052,-0.000747,0.460202
42.4597,-1.378394,-0.665225,0.349637,0.000000,-0.000000,-0.000000,0.149216,-0.032712,0.164950,0.065412,-0.002921,0.461027
42.5255,-1.297257,-0.703790,0.408966,1.303621,-0.557969,0.855935,0.144267,-0.044411,0.167864,0.065703,-0.008572,0.462939
42.5817,-1.223277,-0.734781,0.456443,1.388310,-0.526870,0.801907,0.138997,-0.054644,0.170425,0.065338,-0.013761,0.464557
42.6343,-1.144599,-0.764017,0.500843,1.467652,-0.494726,0.743201,0.132704,-0.065047,0.173022,0.064340,-0.019254,0.466147
42.6907,-1.061527,-0.791440,0.541906,1.541325,-0.461602,0.680164,0.125366,-0.075474,0.175616,0.062655,-0.024962,0.467693
42.7444,-0.974382,-0.816995,0.579394,1.609033,-0.427564,0.613171,0.116974,-0.085783,0.178172,0.060240,-0.030787,0.469180
42.8024,-0.883500,-0.840633,0.613087,1.670501,-0.392682,0.542622,0.107530,-0.095837,0.180652,0.057067,-0.036620,0.470593
42.8608,-0.800409,-0.858756,0.637422,3.364428,-0.698571,0.918922,0.098435,-0.104505,0.182639,0.053609,-0.041676,0.471699
42.9199,-0.699744,-0.878311,0.662316,3.451313,-0.628365,0.772242,0.086687,-0.114193,0.184856,0.048784,-0.047403,0.472913
42.9767,-0.592892,-0.895261,0.681282,5.161660,-0.818799,0.916176,0.073504,-0.123638,0.186859,0.042960,-0.052924,0.473979
43.0295,-0.484398,-0.910048,0.695663,5.240958,-0.714305,0.694720,0.059254,-0.132151,0.188666,0.036392,-0.057880,0.474919
43.0811,-0.374652,-0.922648,0.705393,5.301466,-0.608701,0.470023,0.043995,-0.139605,0.190266,0.029159,-0.062157,0.475726
43.1369,-0.264049,-0.933044,0.710432,5.342837,-0.502194,0.243409,0.027797,-0.145874,0.191656,0.021357,-0.065655,0.476397
43.1970,-0.206640,-0.937271,0.710606,0.000000,-0.000000,-0.000000,0.019092,-0.148668,0.192265,0.017136,-0.067130,0.476670
43.2474,-0.022568,-0.947223,0.703602,6.995490,-0.378194,-0.266172,-0.010208,-0.154984,0.193899,0.003003,-0.070206,0.477322
43.3058,0.034122,-0.949141,0.699034,0.000000,-0.000000,-0.000000,-0.019622,-0.156074,0.194309,-0.001484,-0.070626,0.477452
43.3584,0.214670,-0.951683,0.677007,6.861600,-0.096604,-0.837132,-0.050636,-0.156593,0.195372,-0.015954,-0.070250,0.477648
43.4129,0.269879,-0.951313,0.667881,0.000000,-0.000000,-0.000000,-0.060385,-0.155805,0.195629,-0.020382,-0.069606,0.477641
43.4665,0.378113,-0.948352,0.645380,0.000000,-0.000000,-0.000000,-0.079812,-0.152989,0.196009,-0.028985,-0.067620,0.477495
43.5239,0.549421,-0.940010,0.602329,0.000000,-0.000000,-0.000000,-0.110939,-0.144361,0.196553,-0.042158,-0.062534,0.477078
43.5834,0.619053,-0.934590,0.580791,1.787012,0.170494,-0.614176,-0.123637,-0.139405,0.196725,-0.047270,-0.059796,0.476802
43.6432,0.718747,-0.924643,0.545695,1.731213,0.208714,-0.678208,-0.141719,-0.130755,0.196952,-0.054260,-0.055223,0.476301
43.7007,0.815245,-0.912557,0.507051,1.668943,0.246383,-0.737873,-0.158937,-0.120544,0.197191,-0.060578,-0.050090,0.475707
43.7515,0.894679,-0.899463,0.469460,3.126747,0.551191,-1.544338,-0.172866,-0.110823,0.197352,-0.065373,-0.045359,0.475068
43.8060,1.010991,-0.878464,0.411144,1.512017,0.316084,-0.833621,-0.192267,-0.094105,0.197806,-0.071665,-0.037699,0.474096
43.8633,1.082452,-0.862007,0.369169,2.799739,0.684774,-1.712387,-0.203602,-0.082485,0.198103,-0.075005,-0.032577,0.473350
43.9162,1.162589,-0.840790,0.317503,2.634046,0.750149,-1.784834,-0.215542,-0.068184,0.198529,-0.078222,-0.026507,0.472419
43.9666,1.213100,-0.825807,0.282328,1.294125,0.428309,-0.971711,-0.222564,-0.058486,0.198863,-0.079938,-0.022526,0.471782
44.0235,1.307479,-0.792699,0.208589,2.274756,0.875548,-1.896261,-0.234467,-0.039006,0.199591,-0.082386,-0.014812,0.470420
44.0828,1.371709,-0.765935,0.152015,2.082479,0.935302,-1.934556,-0.241464,-0.024775,0.200195,-0.083425,-0.009411,0.469364
44.1367,1.430148,-0.737440,0.094493,1.882724,0.992918,-1.960903,-0.246894,-0.011192,0.200814,-0.083850,-0.004431,0.468279
44.2034,1.512411,-0.686233,-0.002107,3.126336,1.946077,-3.671187,-0.252630,0.008831,0.201720,-0.083338,0.002597,0.466405
44.2558,1.534582,-0.669601,-0.031986,1.452550,1.089668,-1.957586,-0.253697,0.014379,0.201971,-0.082931,0.004472,0.465820
44.3174,1.554042,-0.651738,-0.062536,1.274945,1.170324,-2.001567,-0.254333,0.019293,0.202100,-0.082356,0.006105,0.465187
44.3806,1.564531,-0.638066,-0.084207,0.477439,0.709914,-1.097906,-0.254378,0.021958,0.201998,-0.081808,0.006980,0.464685
44.4417,1.590084,-0.598048,-0.145505,0.354216,0.729133,-1.068450,-0.253810,0.028452,0.201591,-0.080014,0.009058,0.463254
44.4944,1.608715,-0.556965,-0.205093,0.230246,0.746999,-1.033228,-0.252268,0.033148,0.200969,-0.077920,0.010496,0.461841
44.5529,1.616345,-0.520044,-0.254316,0.213223,1.489033,-1.938781,-0.249920,0.035000,0.199974,-0.075808,0.011021,0.460582
44.6034,1.619031,-0.475677,-0.310176,-0.023235,1.515375,-1.848010,-0.246354,0.035546,0.198531,-0.073083,0.011127,0.459128
44.6554,1.614755,-0.430573,-0.363209,-0.258479,1.538979,-1.747634,-0.241916,0.034349,0.196757,-0.070109,0.010720,0.457712
44.7154,1.603564,-0.384815,-0.413139,-0.491642,1.559758,-1.638172,-0.236568,0.031526,0.194625,-0.066883,0.009870,0.456339
44.7710,1.575237,-0.315987,-0.481391,-1.029609,2.250201,-2.168291,-0.226922,0.024898,0.190863,-0.061634,0.008017,0.454409
44.8284,1.547238,-0.268965,-0.522561,-1.352571,2.271450,-1.988810,-0.218980,0.018836,0.187800,-0.057728,0.006430,0.453172
44.8876,1.512689,-0.221593,-0.559804,-1.668924,2.288364,-1.799092,-0.209806,0.011926,0.184373,-0.053522,0.004726,0.452004
44.9413,1.471753,-0.173963,-0.592930,-1.977491,2.300868,-1.600195,-0.199291,0.004501,0.180609,-0.049008,0.003021,0.450915
45.0001,1.447385,-0.149255,-0.607839,-0.000000,0.000000,0.000000,-0.193165,0.000455,0.178457,-0.046527,0.002146,0.450374
45.0596,1.408282,-0.114856,-0.624660,-1.097643,0.898428,-0.379524,-0.183504,-0.005478,0.175055,-0.042848,0.000930,0.449625
45.1153,1.345748,-0.064501,-0.645110,-1.193212,0.893779,-0.295481,-0.167912,-0.013473,0.169925,-0.037195,-0.000503,0.448636
45.1751,1.277901,-0.014422,-0.660836,-1.284069,0.887570,-0.210371,-0.150823,-0.020054,0.164786,-0.031318,-0.001376,0.447804
45.2343,1.205006,0.035293,-0.671781,-1.369855,0.879790,-0.124678,-0.132411,-0.024691,0.159748,-0.025304,-0.001567,0.447144
45.2886,1.135846,0.077943,-0.675375,-2.825975,1.699125,-0.080311,-0.115108,-0.026781,0.155333,-0.019977,-0.001106,0.446695
45.3480,1.008027,0.151658,-0.674091,-4.227393,2.390238,0.117379,-0.084104,-0.024756,0.148505,-0.010947,0.001361,0.446318
45.4030,0.916775,0.200367,-0.666910,-4.408053,2.352932,0.346875,-0.063387,-0.018797,0.144693,-0.005299,0.004271,0.446374
45.4565,0.813534,0.254096,-0.656508,-3.099153,1.563934,0.393105,-0.042111,-0.007829,0.141677,0.000229,0.008631,0.446791
45.5174,0.720369,0.299836,-0.642533,-3.207811,1.535309,0.548304,-0.025427,0.005596,0.140038,0.004256,0.013346,0.447442
45.5802,0.620263,0.345464,-0.621454,-4.835800,2.204116,1.018246,-0.010689,0.023346,0.139415,0.007456,0.019038,0.448394
45.6426,0.582580,0.361500,-0.611480,-1.943052,0.809694,0.545524,-0.006090,0.030838,0.139485,0.008341,0.021305,0.448811
45.6974,0.473357,0.406681,-0.580196,-1.964868,0.785390,0.613575,0.003906,0.054527,0.140849,0.009933,0.028203,0.450260
45.7562,0.325367,0.464922,-0.532259,-3.761337,1.443659,1.287518,0.008838,0.089962,0.145556,0.009707,0.037957,0.452787
45.8107,0.184446,0.518713,-0.483450,-1.919223,0.706884,0.714034,0.003625,0.124990,0.153271,0.006922,0.047173,0.455829
45.8642,0.076734,0.558103,-0.442830,-1.923494,0.680343,0.770311,-0.006977,0.151183,0.161309,0.003143,0.053787,0.458544
45.9193,-0.031142,0.595993,-0.399104,-1.920313,0.652556,0.821460,-0.023199,0.175742,0.171254,-0.001982,0.059764,0.461593
45.9766,-0.124518,0.626988,-0.357702,-3.727277,1.218384,1.689950,-0.041524,0.194903,0.181424,-0.007401,0.064221,0.464478
46.0271,-0.233963,0.662059,-0.306679,-3.687453,1.159244,1.763655,-0.067580,0.213859,0.195200,-0.014762,0.068433,0.468165
46.0791,-0.371759,0.705146,-0.240309,-1.845877,0.556981,0.929268,-0.106260,0.230888,0.215321,-0.025283,0.071929,0.473277
46.1324,-0.474998,0.736073,-0.187890,-1.814376,0.525007,0.957970,-0.138501,0.237850,0.232393,-0.033813,0.073048,0.477418
46.1834,-0.558640,0.760276,-0.143728,-0.000000,0.000000,0.000000,-0.165970,0.239457,0.247442,-0.040961,0.072946,0.480955
